%
O1000
( ********************************************************************** )
( *    INTELLIGENT MANUFACTORY SOFTWARE WWW.IMS-SOFTWARE.COM           * )
( *    IMSPOST VERSION : 8.1Q                                          * )
( *    USER VERSION : 1                                                * )
( ********************************************************************** )
N10 G21 G90 G40 G17 G94 G00 G49 G80 G98 G64 G54
( TOOL DATA : T1 END MILL D 8,T1 END MILL D 8 )
N20 T1 M6
N30 G0 X38.367 Y57.156 S3500 M3
N40 G43 Z34. H1
N50 G1 Z9. F125.
N60 Z-1.
N70 X40. Y50.
N80 X80. F1300.
N90 Y0
N100 X0
N110 Y50.
N120 X40.
N130 Y48.
N140 Y46.
N150 X76.
N160 Y4.
N170 X4.
N180 Y46.
N190 X40.
N200 Y44.
N210 Y42.
N220 X72.
N230 Y8.
N240 X8.
N250 Y42.
N260 X40.
N270 Y40.
N280 Y38.
N290 X68.
N300 Y12.
N310 X12.
N320 Y38.
N330 X40.
N340 Y36.
N350 Y34.
N360 X64.
N370 Y16.
N380 X16.
N390 Y34.
N400 X40.
N410 Y32.
N420 Y30.
N430 X60.
N440 Y20.
N450 X20.
N460 Y30.
N470 X40.
N480 Y28.
N490 Y26.
N500 X56.
N510 Y24.
N520 X24.
N530 Y26.
N540 X40.
N550 Z9. F2000.
N560 G0 X40.494 Y57.01
N570 Z8.
N580 G1 Z-2. F125.
N590 Y50.
N600 X80. F1300.
N610 Y0
N620 X0
N630 Y50.
N640 X40.494
N650 Y48.
N660 Y46.
N670 X76.
N680 Y4.
N690 X4.
N700 Y46.
N710 X40.494
N720 Y44.
N730 Y42.
N740 X72.
N750 Y8.
N760 X8.
N770 Y42.
N780 X40.494
N790 Y40.
N800 Y38.
N810 X68.
N820 Y12.
N830 X12.
N840 Y38.
N850 X40.494
N860 Y36.
N870 Y34.
N880 X64.
N890 Y16.
N900 X16.
N910 Y34.
N920 X40.494
N930 Y32.
N940 Y30.
N950 X60.
N960 Y20.
N970 X20.
N980 Y30.
N990 X40.494
N1000 Y28.
N1010 Y26.
N1020 X56.
N1030 Y24.
N1040 X24.
N1050 Y26.
N1060 X40.494
N1070 Z8. F2000.
N1080 G0 Z8.01
N1090 X55.984 Y23.88
N1100 G1 Z-1.99 F125.
N1110 X56.059 Y23.95 Z-2.018
N1120 X56.151 Y24.051 Z-2.054
N1130 X56.232 Y24.159 Z-2.09
N1140 X56.303 Y24.275 Z-2.127
N1150 X56.364 Y24.396 Z-2.163
N1160 X56.413 Y24.523 Z-2.2
N1170 X56.451 Y24.653 Z-2.236
N1180 X56.476 Y24.787 Z-2.272
N1190 X56.49 Y24.922 Z-2.309
N1200 X56.491 Y25.057 Z-2.345
N1210 X56.479 Y25.193 Z-2.381
N1220 X56.456 Y25.326 Z-2.418
N1230 X56.42 Y25.457 Z-2.454
N1240 X56.372 Y25.585 Z-2.491
N1250 X56.313 Y25.707 Z-2.527
N1260 X56.244 Y25.824 Z-2.563
N1270 X56.164 Y25.933 Z-2.6
N1280 X56.074 Y26.035 Z-2.636
N1290 X55.975 Y26.129 Z-2.673
N1300 X55.869 Y26.213 Z-2.709
N1310 X55.755 Y26.287 Z-2.745
N1320 X55.635 Y26.35 Z-2.782
N1330 X55.509 Y26.402 Z-2.818
N1340 X55.38 Y26.443 Z-2.854
N1350 X55.247 Y26.471 Z-2.891
N1360 X55.112 Y26.487 Z-2.927
N1370 X54.977 Y26.492 Z-2.964
N1380 X54.841 Y26.483 Z-3.
N1390 X54.707 Y26.463 F1300.
N1400 X54.575 Y26.43
N1410 X54.447 Y26.385
N1420 X54.323 Y26.329
N1430 X54.205 Y26.262
N1440 X54.093 Y26.185
N1450 X53.99 Y26.097
N1460 X53.894 Y26.001
N1470 X53.807 Y25.896
N1480 X53.731 Y25.784
N1490 X53.665 Y25.665
N1500 X53.61 Y25.541
N1510 X53.566 Y25.413
N1520 X53.535 Y25.28
N1530 X53.515 Y25.146
N1540 X53.508 Y25.01
N1550 X53.514 Y24.875
N1560 X53.531 Y24.74
N1570 X53.561 Y24.608
N1580 X53.602 Y24.478
N1590 X53.656 Y24.353
N1600 X53.72 Y24.234
N1610 X53.795 Y24.121
N1620 X53.88 Y24.015
N1630 X53.974 Y23.917
N1640 X54.077 Y23.828
N1650 X54.187 Y23.749
N1660 X54.304 Y23.68
N1670 X54.492 Y23.593
N1680 X54.686 Y23.542
N1690 X54.82 Y23.519
N1700 X54.956 Y23.509
N1710 X55.091 Y23.511
N1720 X55.226 Y23.526
N1730 X55.36 Y23.552
N1740 X55.49 Y23.591
N1750 X55.616 Y23.641
N1760 X55.737 Y23.703
N1770 X55.852 Y23.775
N1780 X55.96 Y23.858
N1790 X56.059 Y23.95
N1800 X56.151 Y24.051
N1810 X56.232 Y24.159
N1820 X56.303 Y24.275
N1830 X56.364 Y24.396
N1840 X56.413 Y24.523
N1850 X56.451 Y24.653
N1860 X56.476 Y24.787
N1870 X56.49 Y24.922
N1880 X56.491 Y25.057
N1890 X56.479 Y25.193
N1900 X56.456 Y25.326
N1910 X56.42 Y25.457
N1920 X56.372 Y25.585
N1930 X56.313 Y25.707
N1940 X56.244 Y25.824
N1950 X56.164 Y25.933
N1960 X56.074 Y26.035
N1970 X55.975 Y26.129
N1980 X55.869 Y26.213
N1990 X55.755 Y26.287
N2000 X55.635 Y26.35
N2010 X55.509 Y26.402
N2020 X55.38 Y26.443
N2030 X55.247 Y26.471
N2040 X55.112 Y26.487
N2050 X54.977 Y26.492
N2060 X54.841 Y26.483
N2070 X54.537 Y28.46
N2080 X54.234 Y30.437
N2090 X53.92 Y30.389
N2100 X53.434 Y30.268
N2110 X52.961 Y30.104
N2120 X52.506 Y29.897
N2130 X52.071 Y29.65
N2140 X51.66 Y29.365
N2150 X51.277 Y29.043
N2160 X50.925 Y28.687
N2170 X50.606 Y28.302
N2180 X50.324 Y27.888
N2190 X50.081 Y27.451
N2200 X49.879 Y26.994
N2210 X49.718 Y26.52
N2220 X49.602 Y26.033
N2230 X49.531 Y25.538
N2240 X49.504 Y25.039
N2250 X49.524 Y24.539
N2260 X49.588 Y24.043
N2270 X49.698 Y23.554
N2280 X49.851 Y23.078
N2290 X50.047 Y22.618
N2300 X50.284 Y22.177
N2310 X50.561 Y21.76
N2320 X50.874 Y21.37
N2330 X51.221 Y21.01
N2340 X51.599 Y20.683
N2350 X52.006 Y20.391
N2360 X52.437 Y20.138
N2370 X52.919 Y19.912
N2380 X53.188 Y19.809
N2390 X53.314 Y19.767
N2400 X53.844 Y19.627
N2410 X54.338 Y19.544
N2420 X54.836 Y19.507
N2430 X55.337 Y19.514
N2440 X55.834 Y19.568
N2450 X56.325 Y19.666
N2460 X56.804 Y19.809
N2470 X57.269 Y19.994
N2480 X57.715 Y20.221
N2490 X58.138 Y20.488
N2500 X58.535 Y20.792
N2510 X58.903 Y21.131
N2520 X59.239 Y21.502
N2530 X59.539 Y21.902
N2540 X59.802 Y22.327
N2550 X60.025 Y22.775
N2560 X60.207 Y23.241
N2570 X60.345 Y23.722
N2580 X60.439 Y24.214
N2590 X60.488 Y24.711
N2600 X60.492 Y25.212
N2610 X60.45 Y25.71
N2620 X60.363 Y26.203
N2630 X60.231 Y26.685
N2640 X60.056 Y27.154
N2650 X59.839 Y27.605
N2660 X59.582 Y28.034
N2670 X59.287 Y28.438
N2680 X58.957 Y28.814
N2690 X58.594 Y29.158
N2700 X58.201 Y29.468
N2710 X57.781 Y29.74
N2720 X57.339 Y29.973
N2730 X56.877 Y30.166
N2740 X56.399 Y30.315
N2750 X55.91 Y30.42
N2760 X55.413 Y30.48
N2770 X54.913 Y30.495
N2780 X54.414 Y30.465
N2790 X54.234 Y30.437
N2800 X53.93 Y32.414
N2810 X53.627 Y34.391
N2820 X53.132 Y34.315
N2830 X52.293 Y34.106
N2840 X51.476 Y33.822
N2850 X50.689 Y33.465
N2860 X49.937 Y33.038
N2870 X49.227 Y32.544
N2880 X48.565 Y31.988
N2890 X47.956 Y31.374
N2900 X47.405 Y30.707
N2910 X46.918 Y29.993
N2920 X46.497 Y29.237
N2930 X46.147 Y28.446
N2940 X45.87 Y27.627
N2950 X45.669 Y26.786
N2960 X45.546 Y25.93
N2970 X45.5 Y25.067
N2980 X45.534 Y24.202
N2990 X45.645 Y23.345
N3000 X45.835 Y22.501
N3010 X46.1 Y21.678
N3020 X46.439 Y20.882
N3030 X46.849 Y20.121
N3040 X47.326 Y19.4
N3050 X47.867 Y18.725
N3060 X48.467 Y18.103
N3070 X49.122 Y17.537
N3080 X49.825 Y17.034
N3090 X50.57 Y16.596
N3100 X51.353 Y16.228
N3110 X51.836 Y16.044
N3120 X52.166 Y15.933
N3130 X53.002 Y15.712
N3140 X53.855 Y15.569
N3150 X54.717 Y15.504
N3160 X55.582 Y15.518
N3170 X56.442 Y15.61
N3180 X57.29 Y15.78
N3190 X58.119 Y16.026
N3200 X58.922 Y16.347
N3210 X59.692 Y16.74
N3220 X60.424 Y17.201
N3230 X61.111 Y17.726
N3240 X61.747 Y18.312
N3250 X62.327 Y18.953
N3260 X62.847 Y19.645
N3270 X63.301 Y20.38
N3280 X63.687 Y21.154
N3290 X64. Y21.96
N3300 X64.24 Y22.791
N3310 X64.402 Y23.64
N3320 X64.487 Y24.501
N3330 X64.493 Y25.366
N3340 X64.42 Y26.228
N3350 X64.27 Y27.079
N3360 X64.042 Y27.913
N3370 X63.74 Y28.724
N3380 X63.365 Y29.503
N3390 X62.921 Y30.245
N3400 X62.411 Y30.944
N3410 X61.84 Y31.593
N3420 X61.212 Y32.188
N3430 X60.533 Y32.723
N3440 X59.808 Y33.194
N3450 X59.043 Y33.597
N3460 X58.244 Y33.929
N3470 X57.419 Y34.187
N3480 X56.573 Y34.369
N3490 X55.715 Y34.473
N3500 X54.85 Y34.499
N3510 X53.987 Y34.446
N3520 X53.627 Y34.391
N3530 X53.323 Y34.313 Z-2.916
N3540 X53.04 Y34.177 Z-2.832
N3550 X52.789 Y33.989 Z-2.747
N3560 X52.58 Y33.756 Z-2.663
N3570 X52.42 Y33.486 Z-2.579
N3580 X52.316 Y33.19 Z-2.495
N3590 X52.271 Y32.879 Z-2.411
N3600 X52.288 Y32.566 Z-2.327
N3610 Z7.673 F2000.
N3620 G0 X55.984 Y23.88
N3630 Z7.01
N3640 G1 Z-2.99 F125.
N3650 X56.059 Y23.95 Z-3.018
N3660 X56.151 Y24.051 Z-3.054
N3670 X56.232 Y24.159 Z-3.09
N3680 X56.303 Y24.275 Z-3.127
N3690 X56.364 Y24.396 Z-3.163
N3700 X56.413 Y24.523 Z-3.2
N3710 X56.451 Y24.653 Z-3.236
N3720 X56.476 Y24.787 Z-3.272
N3730 X56.49 Y24.922 Z-3.309
N3740 X56.491 Y25.057 Z-3.345
N3750 X56.479 Y25.193 Z-3.381
N3760 X56.456 Y25.326 Z-3.418
N3770 X56.42 Y25.457 Z-3.454
N3780 X56.372 Y25.585 Z-3.491
N3790 X56.313 Y25.707 Z-3.527
N3800 X56.244 Y25.824 Z-3.563
N3810 X56.164 Y25.933 Z-3.6
N3820 X56.074 Y26.035 Z-3.636
N3830 X55.975 Y26.129 Z-3.673
N3840 X55.869 Y26.213 Z-3.709
N3850 X55.755 Y26.287 Z-3.745
N3860 X55.635 Y26.35 Z-3.782
N3870 X55.509 Y26.402 Z-3.818
N3880 X55.38 Y26.443 Z-3.854
N3890 X55.247 Y26.471 Z-3.891
N3900 X55.112 Y26.487 Z-3.927
N3910 X54.977 Y26.492 Z-3.964
N3920 X54.841 Y26.483 Z-4.
N3930 X54.707 Y26.463 F1300.
N3940 X54.575 Y26.43
N3950 X54.447 Y26.385
N3960 X54.323 Y26.329
N3970 X54.205 Y26.262
N3980 X54.093 Y26.185
N3990 X53.99 Y26.097
N4000 X53.894 Y26.001
N4010 X53.807 Y25.896
N4020 X53.731 Y25.784
N4030 X53.665 Y25.665
N4040 X53.61 Y25.541
N4050 X53.566 Y25.413
N4060 X53.535 Y25.28
N4070 X53.515 Y25.146
N4080 X53.508 Y25.01
N4090 X53.514 Y24.875
N4100 X53.531 Y24.74
N4110 X53.561 Y24.608
N4120 X53.602 Y24.478
N4130 X53.656 Y24.353
N4140 X53.72 Y24.234
N4150 X53.795 Y24.121
N4160 X53.88 Y24.015
N4170 X53.974 Y23.917
N4180 X54.077 Y23.828
N4190 X54.187 Y23.749
N4200 X54.304 Y23.68
N4210 X54.492 Y23.593
N4220 X54.686 Y23.542
N4230 X54.82 Y23.519
N4240 X54.956 Y23.509
N4250 X55.091 Y23.511
N4260 X55.226 Y23.526
N4270 X55.36 Y23.552
N4280 X55.49 Y23.591
N4290 X55.616 Y23.641
N4300 X55.737 Y23.703
N4310 X55.852 Y23.775
N4320 X55.96 Y23.858
N4330 X56.059 Y23.95
N4340 X56.151 Y24.051
N4350 X56.232 Y24.159
N4360 X56.303 Y24.275
N4370 X56.364 Y24.396
N4380 X56.413 Y24.523
N4390 X56.451 Y24.653
N4400 X56.476 Y24.787
N4410 X56.49 Y24.922
N4420 X56.491 Y25.057
N4430 X56.479 Y25.193
N4440 X56.456 Y25.326
N4450 X56.42 Y25.457
N4460 X56.372 Y25.585
N4470 X56.313 Y25.707
N4480 X56.244 Y25.824
N4490 X56.164 Y25.933
N4500 X56.074 Y26.035
N4510 X55.975 Y26.129
N4520 X55.869 Y26.213
N4530 X55.755 Y26.287
N4540 X55.635 Y26.35
N4550 X55.509 Y26.402
N4560 X55.38 Y26.443
N4570 X55.247 Y26.471
N4580 X55.112 Y26.487
N4590 X54.977 Y26.492
N4600 X54.841 Y26.483
N4610 X54.537 Y28.46
N4620 X54.234 Y30.437
N4630 X53.92 Y30.389
N4640 X53.434 Y30.268
N4650 X52.961 Y30.104
N4660 X52.506 Y29.897
N4670 X52.071 Y29.65
N4680 X51.66 Y29.365
N4690 X51.277 Y29.043
N4700 X50.925 Y28.687
N4710 X50.606 Y28.302
N4720 X50.324 Y27.888
N4730 X50.081 Y27.451
N4740 X49.879 Y26.994
N4750 X49.718 Y26.52
N4760 X49.602 Y26.033
N4770 X49.531 Y25.538
N4780 X49.504 Y25.039
N4790 X49.524 Y24.539
N4800 X49.588 Y24.043
N4810 X49.698 Y23.554
N4820 X49.851 Y23.078
N4830 X50.047 Y22.618
N4840 X50.284 Y22.177
N4850 X50.561 Y21.76
N4860 X50.874 Y21.37
N4870 X51.221 Y21.01
N4880 X51.599 Y20.683
N4890 X52.006 Y20.391
N4900 X52.437 Y20.138
N4910 X52.919 Y19.912
N4920 X53.188 Y19.809
N4930 X53.314 Y19.767
N4940 X53.844 Y19.627
N4950 X54.338 Y19.544
N4960 X54.836 Y19.507
N4970 X55.337 Y19.514
N4980 X55.834 Y19.568
N4990 X56.325 Y19.666
N5000 X56.804 Y19.809
N5010 X57.269 Y19.994
N5020 X57.715 Y20.221
N5030 X58.138 Y20.488
N5040 X58.535 Y20.792
N5050 X58.903 Y21.131
N5060 X59.239 Y21.502
N5070 X59.539 Y21.902
N5080 X59.802 Y22.327
N5090 X60.025 Y22.775
N5100 X60.207 Y23.241
N5110 X60.345 Y23.722
N5120 X60.439 Y24.214
N5130 X60.488 Y24.711
N5140 X60.492 Y25.212
N5150 X60.45 Y25.71
N5160 X60.363 Y26.203
N5170 X60.231 Y26.685
N5180 X60.056 Y27.154
N5190 X59.839 Y27.605
N5200 X59.582 Y28.034
N5210 X59.287 Y28.438
N5220 X58.957 Y28.814
N5230 X58.594 Y29.158
N5240 X58.201 Y29.468
N5250 X57.781 Y29.74
N5260 X57.339 Y29.973
N5270 X56.877 Y30.166
N5280 X56.399 Y30.315
N5290 X55.91 Y30.42
N5300 X55.413 Y30.48
N5310 X54.913 Y30.495
N5320 X54.414 Y30.465
N5330 X54.234 Y30.437
N5340 X53.93 Y32.414
N5350 X53.627 Y34.391
N5360 X53.132 Y34.315
N5370 X52.293 Y34.106
N5380 X51.476 Y33.822
N5390 X50.689 Y33.465
N5400 X49.937 Y33.038
N5410 X49.227 Y32.544
N5420 X48.565 Y31.988
N5430 X47.956 Y31.374
N5440 X47.405 Y30.707
N5450 X46.918 Y29.993
N5460 X46.497 Y29.237
N5470 X46.147 Y28.446
N5480 X45.87 Y27.627
N5490 X45.669 Y26.786
N5500 X45.546 Y25.93
N5510 X45.5 Y25.067
N5520 X45.534 Y24.202
N5530 X45.645 Y23.345
N5540 X45.835 Y22.501
N5550 X46.1 Y21.678
N5560 X46.439 Y20.882
N5570 X46.849 Y20.121
N5580 X47.326 Y19.4
N5590 X47.867 Y18.725
N5600 X48.467 Y18.103
N5610 X49.122 Y17.537
N5620 X49.825 Y17.034
N5630 X50.57 Y16.596
N5640 X51.353 Y16.228
N5650 X51.836 Y16.044
N5660 X52.166 Y15.933
N5670 X53.002 Y15.712
N5680 X53.855 Y15.569
N5690 X54.717 Y15.504
N5700 X55.582 Y15.518
N5710 X56.442 Y15.61
N5720 X57.29 Y15.78
N5730 X58.119 Y16.026
N5740 X58.922 Y16.347
N5750 X59.692 Y16.74
N5760 X60.424 Y17.201
N5770 X61.111 Y17.726
N5780 X61.747 Y18.312
N5790 X62.327 Y18.953
N5800 X62.847 Y19.645
N5810 X63.301 Y20.38
N5820 X63.687 Y21.154
N5830 X64. Y21.96
N5840 X64.24 Y22.791
N5850 X64.402 Y23.64
N5860 X64.487 Y24.501
N5870 X64.493 Y25.366
N5880 X64.42 Y26.228
N5890 X64.27 Y27.079
N5900 X64.042 Y27.913
N5910 X63.74 Y28.724
N5920 X63.365 Y29.503
N5930 X62.921 Y30.245
N5940 X62.411 Y30.944
N5950 X61.84 Y31.593
N5960 X61.212 Y32.188
N5970 X60.533 Y32.723
N5980 X59.808 Y33.194
N5990 X59.043 Y33.597
N6000 X58.244 Y33.929
N6010 X57.419 Y34.187
N6020 X56.573 Y34.369
N6030 X55.715 Y34.473
N6040 X54.85 Y34.499
N6050 X53.987 Y34.446
N6060 X53.627 Y34.391
N6070 X53.323 Y34.313 Z-3.916
N6080 X53.04 Y34.177 Z-3.832
N6090 X52.789 Y33.989 Z-3.747
N6100 X52.58 Y33.756 Z-3.663
N6110 X52.42 Y33.486 Z-3.579
N6120 X52.316 Y33.19 Z-3.495
N6130 X52.271 Y32.879 Z-3.411
N6140 X52.288 Y32.566 Z-3.327
N6150 Z6.673 F2000.
N6160 G0 X55.984 Y23.88
N6170 Z6.01
N6180 G1 Z-3.99 F125.
N6190 X56.059 Y23.95 Z-4.018
N6200 X56.151 Y24.051 Z-4.054
N6210 X56.232 Y24.159 Z-4.09
N6220 X56.303 Y24.275 Z-4.127
N6230 X56.364 Y24.396 Z-4.163
N6240 X56.413 Y24.523 Z-4.2
N6250 X56.451 Y24.653 Z-4.236
N6260 X56.476 Y24.787 Z-4.272
N6270 X56.49 Y24.922 Z-4.309
N6280 X56.491 Y25.057 Z-4.345
N6290 X56.479 Y25.193 Z-4.381
N6300 X56.456 Y25.326 Z-4.418
N6310 X56.42 Y25.457 Z-4.454
N6320 X56.372 Y25.585 Z-4.491
N6330 X56.313 Y25.707 Z-4.527
N6340 X56.244 Y25.824 Z-4.563
N6350 X56.164 Y25.933 Z-4.6
N6360 X56.074 Y26.035 Z-4.636
N6370 X55.975 Y26.129 Z-4.673
N6380 X55.869 Y26.213 Z-4.709
N6390 X55.755 Y26.287 Z-4.745
N6400 X55.635 Y26.35 Z-4.782
N6410 X55.509 Y26.402 Z-4.818
N6420 X55.38 Y26.443 Z-4.854
N6430 X55.247 Y26.471 Z-4.891
N6440 X55.112 Y26.487 Z-4.927
N6450 X54.977 Y26.492 Z-4.964
N6460 X54.841 Y26.483 Z-5.
N6470 X54.707 Y26.463 F1300.
N6480 X54.575 Y26.43
N6490 X54.447 Y26.385
N6500 X54.323 Y26.329
N6510 X54.205 Y26.262
N6520 X54.093 Y26.185
N6530 X53.99 Y26.097
N6540 X53.894 Y26.001
N6550 X53.807 Y25.896
N6560 X53.731 Y25.784
N6570 X53.665 Y25.665
N6580 X53.61 Y25.541
N6590 X53.566 Y25.413
N6600 X53.535 Y25.28
N6610 X53.515 Y25.146
N6620 X53.508 Y25.01
N6630 X53.514 Y24.875
N6640 X53.531 Y24.74
N6650 X53.561 Y24.608
N6660 X53.602 Y24.478
N6670 X53.656 Y24.353
N6680 X53.72 Y24.234
N6690 X53.795 Y24.121
N6700 X53.88 Y24.015
N6710 X53.974 Y23.917
N6720 X54.077 Y23.828
N6730 X54.187 Y23.749
N6740 X54.304 Y23.68
N6750 X54.492 Y23.593
N6760 X54.686 Y23.542
N6770 X54.82 Y23.519
N6780 X54.956 Y23.509
N6790 X55.091 Y23.511
N6800 X55.226 Y23.526
N6810 X55.36 Y23.552
N6820 X55.49 Y23.591
N6830 X55.616 Y23.641
N6840 X55.737 Y23.703
N6850 X55.852 Y23.775
N6860 X55.96 Y23.858
N6870 X56.059 Y23.95
N6880 X56.151 Y24.051
N6890 X56.232 Y24.159
N6900 X56.303 Y24.275
N6910 X56.364 Y24.396
N6920 X56.413 Y24.523
N6930 X56.451 Y24.653
N6940 X56.476 Y24.787
N6950 X56.49 Y24.922
N6960 X56.491 Y25.057
N6970 X56.479 Y25.193
N6980 X56.456 Y25.326
N6990 X56.42 Y25.457
N7000 X56.372 Y25.585
N7010 X56.313 Y25.707
N7020 X56.244 Y25.824
N7030 X56.164 Y25.933
N7040 X56.074 Y26.035
N7050 X55.975 Y26.129
N7060 X55.869 Y26.213
N7070 X55.755 Y26.287
N7080 X55.635 Y26.35
N7090 X55.509 Y26.402
N7100 X55.38 Y26.443
N7110 X55.247 Y26.471
N7120 X55.112 Y26.487
N7130 X54.977 Y26.492
N7140 X54.841 Y26.483
N7150 X54.537 Y28.46
N7160 X54.234 Y30.437
N7170 X53.92 Y30.389
N7180 X53.434 Y30.268
N7190 X52.961 Y30.104
N7200 X52.506 Y29.897
N7210 X52.071 Y29.65
N7220 X51.66 Y29.365
N7230 X51.277 Y29.043
N7240 X50.925 Y28.687
N7250 X50.606 Y28.302
N7260 X50.324 Y27.888
N7270 X50.081 Y27.451
N7280 X49.879 Y26.994
N7290 X49.718 Y26.52
N7300 X49.602 Y26.033
N7310 X49.531 Y25.538
N7320 X49.504 Y25.039
N7330 X49.524 Y24.539
N7340 X49.588 Y24.043
N7350 X49.698 Y23.554
N7360 X49.851 Y23.078
N7370 X50.047 Y22.618
N7380 X50.284 Y22.177
N7390 X50.561 Y21.76
N7400 X50.874 Y21.37
N7410 X51.221 Y21.01
N7420 X51.599 Y20.683
N7430 X52.006 Y20.391
N7440 X52.437 Y20.138
N7450 X52.919 Y19.912
N7460 X53.188 Y19.809
N7470 X53.314 Y19.767
N7480 X53.844 Y19.627
N7490 X54.338 Y19.544
N7500 X54.836 Y19.507
N7510 X55.337 Y19.514
N7520 X55.834 Y19.568
N7530 X56.325 Y19.666
N7540 X56.804 Y19.809
N7550 X57.269 Y19.994
N7560 X57.715 Y20.221
N7570 X58.138 Y20.488
N7580 X58.535 Y20.792
N7590 X58.903 Y21.131
N7600 X59.239 Y21.502
N7610 X59.539 Y21.902
N7620 X59.802 Y22.327
N7630 X60.025 Y22.775
N7640 X60.207 Y23.241
N7650 X60.345 Y23.722
N7660 X60.439 Y24.214
N7670 X60.488 Y24.711
N7680 X60.492 Y25.212
N7690 X60.45 Y25.71
N7700 X60.363 Y26.203
N7710 X60.231 Y26.685
N7720 X60.056 Y27.154
N7730 X59.839 Y27.605
N7740 X59.582 Y28.034
N7750 X59.287 Y28.438
N7760 X58.957 Y28.814
N7770 X58.594 Y29.158
N7780 X58.201 Y29.468
N7790 X57.781 Y29.74
N7800 X57.339 Y29.973
N7810 X56.877 Y30.166
N7820 X56.399 Y30.315
N7830 X55.91 Y30.42
N7840 X55.413 Y30.48
N7850 X54.913 Y30.495
N7860 X54.414 Y30.465
N7870 X54.234 Y30.437
N7880 X53.93 Y32.414
N7890 X53.627 Y34.391
N7900 X53.132 Y34.315
N7910 X52.293 Y34.106
N7920 X51.476 Y33.822
N7930 X50.689 Y33.465
N7940 X49.937 Y33.038
N7950 X49.227 Y32.544
N7960 X48.565 Y31.988
N7970 X47.956 Y31.374
N7980 X47.405 Y30.707
N7990 X46.918 Y29.993
N8000 X46.497 Y29.237
N8010 X46.147 Y28.446
N8020 X45.87 Y27.627
N8030 X45.669 Y26.786
N8040 X45.546 Y25.93
N8050 X45.5 Y25.067
N8060 X45.534 Y24.202
N8070 X45.645 Y23.345
N8080 X45.835 Y22.501
N8090 X46.1 Y21.678
N8100 X46.439 Y20.882
N8110 X46.849 Y20.121
N8120 X47.326 Y19.4
N8130 X47.867 Y18.725
N8140 X48.467 Y18.103
N8150 X49.122 Y17.537
N8160 X49.825 Y17.034
N8170 X50.57 Y16.596
N8180 X51.353 Y16.228
N8190 X51.836 Y16.044
N8200 X52.166 Y15.933
N8210 X53.002 Y15.712
N8220 X53.855 Y15.569
N8230 X54.717 Y15.504
N8240 X55.582 Y15.518
N8250 X56.442 Y15.61
N8260 X57.29 Y15.78
N8270 X58.119 Y16.026
N8280 X58.922 Y16.347
N8290 X59.692 Y16.74
N8300 X60.424 Y17.201
N8310 X61.111 Y17.726
N8320 X61.747 Y18.312
N8330 X62.327 Y18.953
N8340 X62.847 Y19.645
N8350 X63.301 Y20.38
N8360 X63.687 Y21.154
N8370 X64. Y21.96
N8380 X64.24 Y22.791
N8390 X64.402 Y23.64
N8400 X64.487 Y24.501
N8410 X64.493 Y25.366
N8420 X64.42 Y26.228
N8430 X64.27 Y27.079
N8440 X64.042 Y27.913
N8450 X63.74 Y28.724
N8460 X63.365 Y29.503
N8470 X62.921 Y30.245
N8480 X62.411 Y30.944
N8490 X61.84 Y31.593
N8500 X61.212 Y32.188
N8510 X60.533 Y32.723
N8520 X59.808 Y33.194
N8530 X59.043 Y33.597
N8540 X58.244 Y33.929
N8550 X57.419 Y34.187
N8560 X56.573 Y34.369
N8570 X55.715 Y34.473
N8580 X54.85 Y34.499
N8590 X53.987 Y34.446
N8600 X53.627 Y34.391
N8610 X53.323 Y34.313 Z-4.916
N8620 X53.04 Y34.177 Z-4.832
N8630 X52.789 Y33.989 Z-4.747
N8640 X52.58 Y33.756 Z-4.663
N8650 X52.42 Y33.486 Z-4.579
N8660 X52.316 Y33.19 Z-4.495
N8670 X52.271 Y32.879 Z-4.411
N8680 X52.288 Y32.566 Z-4.327
N8690 Z5.673 F2000.
N8700 G0 X55.984 Y23.88
N8710 Z5.01
N8720 G1 Z-4.99 F125.
N8730 X56.059 Y23.95 Z-5.018
N8740 X56.151 Y24.051 Z-5.054
N8750 X56.232 Y24.159 Z-5.09
N8760 X56.303 Y24.275 Z-5.127
N8770 X56.364 Y24.396 Z-5.163
N8780 X56.413 Y24.523 Z-5.2
N8790 X56.451 Y24.653 Z-5.236
N8800 X56.476 Y24.787 Z-5.272
N8810 X56.49 Y24.922 Z-5.309
N8820 X56.491 Y25.057 Z-5.345
N8830 X56.479 Y25.193 Z-5.381
N8840 X56.456 Y25.326 Z-5.418
N8850 X56.42 Y25.457 Z-5.454
N8860 X56.372 Y25.585 Z-5.491
N8870 X56.313 Y25.707 Z-5.527
N8880 X56.244 Y25.824 Z-5.563
N8890 X56.164 Y25.933 Z-5.6
N8900 X56.074 Y26.035 Z-5.636
N8910 X55.975 Y26.129 Z-5.673
N8920 X55.869 Y26.213 Z-5.709
N8930 X55.755 Y26.287 Z-5.745
N8940 X55.635 Y26.35 Z-5.782
N8950 X55.509 Y26.402 Z-5.818
N8960 X55.38 Y26.443 Z-5.854
N8970 X55.247 Y26.471 Z-5.891
N8980 X55.112 Y26.487 Z-5.927
N8990 X54.977 Y26.492 Z-5.964
N9000 X54.841 Y26.483 Z-6.
N9010 X54.707 Y26.463 F1300.
N9020 X54.575 Y26.43
N9030 X54.447 Y26.385
N9040 X54.323 Y26.329
N9050 X54.205 Y26.262
N9060 X54.093 Y26.185
N9070 X53.99 Y26.097
N9080 X53.894 Y26.001
N9090 X53.807 Y25.896
N9100 X53.731 Y25.784
N9110 X53.665 Y25.665
N9120 X53.61 Y25.541
N9130 X53.566 Y25.413
N9140 X53.535 Y25.28
N9150 X53.515 Y25.146
N9160 X53.508 Y25.01
N9170 X53.514 Y24.875
N9180 X53.531 Y24.74
N9190 X53.561 Y24.608
N9200 X53.602 Y24.478
N9210 X53.656 Y24.353
N9220 X53.72 Y24.234
N9230 X53.795 Y24.121
N9240 X53.88 Y24.015
N9250 X53.974 Y23.917
N9260 X54.077 Y23.828
N9270 X54.187 Y23.749
N9280 X54.304 Y23.68
N9290 X54.492 Y23.593
N9300 X54.686 Y23.542
N9310 X54.82 Y23.519
N9320 X54.956 Y23.509
N9330 X55.091 Y23.511
N9340 X55.226 Y23.526
N9350 X55.36 Y23.552
N9360 X55.49 Y23.591
N9370 X55.616 Y23.641
N9380 X55.737 Y23.703
N9390 X55.852 Y23.775
N9400 X55.96 Y23.858
N9410 X56.059 Y23.95
N9420 X56.151 Y24.051
N9430 X56.232 Y24.159
N9440 X56.303 Y24.275
N9450 X56.364 Y24.396
N9460 X56.413 Y24.523
N9470 X56.451 Y24.653
N9480 X56.476 Y24.787
N9490 X56.49 Y24.922
N9500 X56.491 Y25.057
N9510 X56.479 Y25.193
N9520 X56.456 Y25.326
N9530 X56.42 Y25.457
N9540 X56.372 Y25.585
N9550 X56.313 Y25.707
N9560 X56.244 Y25.824
N9570 X56.164 Y25.933
N9580 X56.074 Y26.035
N9590 X55.975 Y26.129
N9600 X55.869 Y26.213
N9610 X55.755 Y26.287
N9620 X55.635 Y26.35
N9630 X55.509 Y26.402
N9640 X55.38 Y26.443
N9650 X55.247 Y26.471
N9660 X55.112 Y26.487
N9670 X54.977 Y26.492
N9680 X54.841 Y26.483
N9690 X54.537 Y28.46
N9700 X54.234 Y30.437
N9710 X53.92 Y30.389
N9720 X53.434 Y30.268
N9730 X52.961 Y30.104
N9740 X52.506 Y29.897
N9750 X52.071 Y29.65
N9760 X51.66 Y29.365
N9770 X51.277 Y29.043
N9780 X50.925 Y28.687
N9790 X50.606 Y28.302
N9800 X50.324 Y27.888
N9810 X50.081 Y27.451
N9820 X49.879 Y26.994
N9830 X49.718 Y26.52
N9840 X49.602 Y26.033
N9850 X49.531 Y25.538
N9860 X49.504 Y25.039
N9870 X49.524 Y24.539
N9880 X49.588 Y24.043
N9890 X49.698 Y23.554
N9900 X49.851 Y23.078
N9910 X50.047 Y22.618
N9920 X50.284 Y22.177
N9930 X50.561 Y21.76
N9940 X50.874 Y21.37
N9950 X51.221 Y21.01
N9960 X51.599 Y20.683
N9970 X52.006 Y20.391
N9980 X52.437 Y20.138
N9990 X52.919 Y19.912
N10000 X53.188 Y19.809
N10010 X53.314 Y19.767
N10020 X53.844 Y19.627
N10030 X54.338 Y19.544
N10040 X54.836 Y19.507
N10050 X55.337 Y19.514
N10060 X55.834 Y19.568
N10070 X56.325 Y19.666
N10080 X56.804 Y19.809
N10090 X57.269 Y19.994
N10100 X57.715 Y20.221
N10110 X58.138 Y20.488
N10120 X58.535 Y20.792
N10130 X58.903 Y21.131
N10140 X59.239 Y21.502
N10150 X59.539 Y21.902
N10160 X59.802 Y22.327
N10170 X60.025 Y22.775
N10180 X60.207 Y23.241
N10190 X60.345 Y23.722
N10200 X60.439 Y24.214
N10210 X60.488 Y24.711
N10220 X60.492 Y25.212
N10230 X60.45 Y25.71
N10240 X60.363 Y26.203
N10250 X60.231 Y26.685
N10260 X60.056 Y27.154
N10270 X59.839 Y27.605
N10280 X59.582 Y28.034
N10290 X59.287 Y28.438
N10300 X58.957 Y28.814
N10310 X58.594 Y29.158
N10320 X58.201 Y29.468
N10330 X57.781 Y29.74
N10340 X57.339 Y29.973
N10350 X56.877 Y30.166
N10360 X56.399 Y30.315
N10370 X55.91 Y30.42
N10380 X55.413 Y30.48
N10390 X54.913 Y30.495
N10400 X54.414 Y30.465
N10410 X54.234 Y30.437
N10420 X53.93 Y32.414
N10430 X53.627 Y34.391
N10440 X53.132 Y34.315
N10450 X52.293 Y34.106
N10460 X51.476 Y33.822
N10470 X50.689 Y33.465
N10480 X49.937 Y33.038
N10490 X49.227 Y32.544
N10500 X48.565 Y31.988
N10510 X47.956 Y31.374
N10520 X47.405 Y30.707
N10530 X46.918 Y29.993
N10540 X46.497 Y29.237
N10550 X46.147 Y28.446
N10560 X45.87 Y27.627
N10570 X45.669 Y26.786
N10580 X45.546 Y25.93
N10590 X45.5 Y25.067
N10600 X45.534 Y24.202
N10610 X45.645 Y23.345
N10620 X45.835 Y22.501
N10630 X46.1 Y21.678
N10640 X46.439 Y20.882
N10650 X46.849 Y20.121
N10660 X47.326 Y19.4
N10670 X47.867 Y18.725
N10680 X48.467 Y18.103
N10690 X49.122 Y17.537
N10700 X49.825 Y17.034
N10710 X50.57 Y16.596
N10720 X51.353 Y16.228
N10730 X51.836 Y16.044
N10740 X52.166 Y15.933
N10750 X53.002 Y15.712
N10760 X53.855 Y15.569
N10770 X54.717 Y15.504
N10780 X55.582 Y15.518
N10790 X56.442 Y15.61
N10800 X57.29 Y15.78
N10810 X58.119 Y16.026
N10820 X58.922 Y16.347
N10830 X59.692 Y16.74
N10840 X60.424 Y17.201
N10850 X61.111 Y17.726
N10860 X61.747 Y18.312
N10870 X62.327 Y18.953
N10880 X62.847 Y19.645
N10890 X63.301 Y20.38
N10900 X63.687 Y21.154
N10910 X64. Y21.96
N10920 X64.24 Y22.791
N10930 X64.402 Y23.64
N10940 X64.487 Y24.501
N10950 X64.493 Y25.366
N10960 X64.42 Y26.228
N10970 X64.27 Y27.079
N10980 X64.042 Y27.913
N10990 X63.74 Y28.724
N11000 X63.365 Y29.503
N11010 X62.921 Y30.245
N11020 X62.411 Y30.944
N11030 X61.84 Y31.593
N11040 X61.212 Y32.188
N11050 X60.533 Y32.723
N11060 X59.808 Y33.194
N11070 X59.043 Y33.597
N11080 X58.244 Y33.929
N11090 X57.419 Y34.187
N11100 X56.573 Y34.369
N11110 X55.715 Y34.473
N11120 X54.85 Y34.499
N11130 X53.987 Y34.446
N11140 X53.627 Y34.391
N11150 X53.323 Y34.313 Z-5.916
N11160 X53.04 Y34.177 Z-5.832
N11170 X52.789 Y33.989 Z-5.747
N11180 X52.58 Y33.756 Z-5.663
N11190 X52.42 Y33.486 Z-5.579
N11200 X52.316 Y33.19 Z-5.495
N11210 X52.271 Y32.879 Z-5.411
N11220 X52.288 Y32.566 Z-5.327
N11230 Z4.673 F2000.
N11240 G0 X55.984 Y23.88
N11250 Z4.01
N11260 G1 Z-5.99 F125.
N11270 X56.059 Y23.95 Z-6.018
N11280 X56.151 Y24.051 Z-6.054
N11290 X56.232 Y24.159 Z-6.09
N11300 X56.303 Y24.275 Z-6.127
N11310 X56.364 Y24.396 Z-6.163
N11320 X56.413 Y24.523 Z-6.2
N11330 X56.451 Y24.653 Z-6.236
N11340 X56.476 Y24.787 Z-6.272
N11350 X56.49 Y24.922 Z-6.309
N11360 X56.491 Y25.057 Z-6.345
N11370 X56.479 Y25.193 Z-6.381
N11380 X56.456 Y25.326 Z-6.418
N11390 X56.42 Y25.457 Z-6.454
N11400 X56.372 Y25.585 Z-6.491
N11410 X56.313 Y25.707 Z-6.527
N11420 X56.244 Y25.824 Z-6.563
N11430 X56.164 Y25.933 Z-6.6
N11440 X56.074 Y26.035 Z-6.636
N11450 X55.975 Y26.129 Z-6.673
N11460 X55.869 Y26.213 Z-6.709
N11470 X55.755 Y26.287 Z-6.745
N11480 X55.635 Y26.35 Z-6.782
N11490 X55.509 Y26.402 Z-6.818
N11500 X55.38 Y26.443 Z-6.854
N11510 X55.247 Y26.471 Z-6.891
N11520 X55.112 Y26.487 Z-6.927
N11530 X54.977 Y26.492 Z-6.964
N11540 X54.841 Y26.483 Z-7.
N11550 X54.707 Y26.463 F1300.
N11560 X54.575 Y26.43
N11570 X54.447 Y26.385
N11580 X54.323 Y26.329
N11590 X54.205 Y26.262
N11600 X54.093 Y26.185
N11610 X53.99 Y26.097
N11620 X53.894 Y26.001
N11630 X53.807 Y25.896
N11640 X53.731 Y25.784
N11650 X53.665 Y25.665
N11660 X53.61 Y25.541
N11670 X53.566 Y25.413
N11680 X53.535 Y25.28
N11690 X53.515 Y25.146
N11700 X53.508 Y25.01
N11710 X53.514 Y24.875
N11720 X53.531 Y24.74
N11730 X53.561 Y24.608
N11740 X53.602 Y24.478
N11750 X53.656 Y24.353
N11760 X53.72 Y24.234
N11770 X53.795 Y24.121
N11780 X53.88 Y24.015
N11790 X53.974 Y23.917
N11800 X54.077 Y23.828
N11810 X54.187 Y23.749
N11820 X54.304 Y23.68
N11830 X54.492 Y23.593
N11840 X54.686 Y23.542
N11850 X54.82 Y23.519
N11860 X54.956 Y23.509
N11870 X55.091 Y23.511
N11880 X55.226 Y23.526
N11890 X55.36 Y23.552
N11900 X55.49 Y23.591
N11910 X55.616 Y23.641
N11920 X55.737 Y23.703
N11930 X55.852 Y23.775
N11940 X55.96 Y23.858
N11950 X56.059 Y23.95
N11960 X56.151 Y24.051
N11970 X56.232 Y24.159
N11980 X56.303 Y24.275
N11990 X56.364 Y24.396
N12000 X56.413 Y24.523
N12010 X56.451 Y24.653
N12020 X56.476 Y24.787
N12030 X56.49 Y24.922
N12040 X56.491 Y25.057
N12050 X56.479 Y25.193
N12060 X56.456 Y25.326
N12070 X56.42 Y25.457
N12080 X56.372 Y25.585
N12090 X56.313 Y25.707
N12100 X56.244 Y25.824
N12110 X56.164 Y25.933
N12120 X56.074 Y26.035
N12130 X55.975 Y26.129
N12140 X55.869 Y26.213
N12150 X55.755 Y26.287
N12160 X55.635 Y26.35
N12170 X55.509 Y26.402
N12180 X55.38 Y26.443
N12190 X55.247 Y26.471
N12200 X55.112 Y26.487
N12210 X54.977 Y26.492
N12220 X54.841 Y26.483
N12230 X54.537 Y28.46
N12240 X54.234 Y30.437
N12250 X53.92 Y30.389
N12260 X53.434 Y30.268
N12270 X52.961 Y30.104
N12280 X52.506 Y29.897
N12290 X52.071 Y29.65
N12300 X51.66 Y29.365
N12310 X51.277 Y29.043
N12320 X50.925 Y28.687
N12330 X50.606 Y28.302
N12340 X50.324 Y27.888
N12350 X50.081 Y27.451
N12360 X49.879 Y26.994
N12370 X49.718 Y26.52
N12380 X49.602 Y26.033
N12390 X49.531 Y25.538
N12400 X49.504 Y25.039
N12410 X49.524 Y24.539
N12420 X49.588 Y24.043
N12430 X49.698 Y23.554
N12440 X49.851 Y23.078
N12450 X50.047 Y22.618
N12460 X50.284 Y22.177
N12470 X50.561 Y21.76
N12480 X50.874 Y21.37
N12490 X51.221 Y21.01
N12500 X51.599 Y20.683
N12510 X52.006 Y20.391
N12520 X52.437 Y20.138
N12530 X52.919 Y19.912
N12540 X53.188 Y19.809
N12550 X53.314 Y19.767
N12560 X53.844 Y19.627
N12570 X54.338 Y19.544
N12580 X54.836 Y19.507
N12590 X55.337 Y19.514
N12600 X55.834 Y19.568
N12610 X56.325 Y19.666
N12620 X56.804 Y19.809
N12630 X57.269 Y19.994
N12640 X57.715 Y20.221
N12650 X58.138 Y20.488
N12660 X58.535 Y20.792
N12670 X58.903 Y21.131
N12680 X59.239 Y21.502
N12690 X59.539 Y21.902
N12700 X59.802 Y22.327
N12710 X60.025 Y22.775
N12720 X60.207 Y23.241
N12730 X60.345 Y23.722
N12740 X60.439 Y24.214
N12750 X60.488 Y24.711
N12760 X60.492 Y25.212
N12770 X60.45 Y25.71
N12780 X60.363 Y26.203
N12790 X60.231 Y26.685
N12800 X60.056 Y27.154
N12810 X59.839 Y27.605
N12820 X59.582 Y28.034
N12830 X59.287 Y28.438
N12840 X58.957 Y28.814
N12850 X58.594 Y29.158
N12860 X58.201 Y29.468
N12870 X57.781 Y29.74
N12880 X57.339 Y29.973
N12890 X56.877 Y30.166
N12900 X56.399 Y30.315
N12910 X55.91 Y30.42
N12920 X55.413 Y30.48
N12930 X54.913 Y30.495
N12940 X54.414 Y30.465
N12950 X54.234 Y30.437
N12960 X53.93 Y32.414
N12970 X53.627 Y34.391
N12980 X53.132 Y34.315
N12990 X52.293 Y34.106
N13000 X51.476 Y33.822
N13010 X50.689 Y33.465
N13020 X49.937 Y33.038
N13030 X49.227 Y32.544
N13040 X48.565 Y31.988
N13050 X47.956 Y31.374
N13060 X47.405 Y30.707
N13070 X46.918 Y29.993
N13080 X46.497 Y29.237
N13090 X46.147 Y28.446
N13100 X45.87 Y27.627
N13110 X45.669 Y26.786
N13120 X45.546 Y25.93
N13130 X45.5 Y25.067
N13140 X45.534 Y24.202
N13150 X45.645 Y23.345
N13160 X45.835 Y22.501
N13170 X46.1 Y21.678
N13180 X46.439 Y20.882
N13190 X46.849 Y20.121
N13200 X47.326 Y19.4
N13210 X47.867 Y18.725
N13220 X48.467 Y18.103
N13230 X49.122 Y17.537
N13240 X49.825 Y17.034
N13250 X50.57 Y16.596
N13260 X51.353 Y16.228
N13270 X51.836 Y16.044
N13280 X52.166 Y15.933
N13290 X53.002 Y15.712
N13300 X53.855 Y15.569
N13310 X54.717 Y15.504
N13320 X55.582 Y15.518
N13330 X56.442 Y15.61
N13340 X57.29 Y15.78
N13350 X58.119 Y16.026
N13360 X58.922 Y16.347
N13370 X59.692 Y16.74
N13380 X60.424 Y17.201
N13390 X61.111 Y17.726
N13400 X61.747 Y18.312
N13410 X62.327 Y18.953
N13420 X62.847 Y19.645
N13430 X63.301 Y20.38
N13440 X63.687 Y21.154
N13450 X64. Y21.96
N13460 X64.24 Y22.791
N13470 X64.402 Y23.64
N13480 X64.487 Y24.501
N13490 X64.493 Y25.366
N13500 X64.42 Y26.228
N13510 X64.27 Y27.079
N13520 X64.042 Y27.913
N13530 X63.74 Y28.724
N13540 X63.365 Y29.503
N13550 X62.921 Y30.245
N13560 X62.411 Y30.944
N13570 X61.84 Y31.593
N13580 X61.212 Y32.188
N13590 X60.533 Y32.723
N13600 X59.808 Y33.194
N13610 X59.043 Y33.597
N13620 X58.244 Y33.929
N13630 X57.419 Y34.187
N13640 X56.573 Y34.369
N13650 X55.715 Y34.473
N13660 X54.85 Y34.499
N13670 X53.987 Y34.446
N13680 X53.627 Y34.391
N13690 X53.323 Y34.313 Z-6.916
N13700 X53.04 Y34.177 Z-6.832
N13710 X52.789 Y33.989 Z-6.747
N13720 X52.58 Y33.756 Z-6.663
N13730 X52.42 Y33.486 Z-6.579
N13740 X52.316 Y33.19 Z-6.495
N13750 X52.271 Y32.879 Z-6.411
N13760 X52.288 Y32.566 Z-6.327
N13770 Z3.673 F2000.
N13780 G0 X55.984 Y23.88
N13790 Z3.01
N13800 G1 Z-6.99 F125.
N13810 X56.059 Y23.95 Z-7.018
N13820 X56.151 Y24.051 Z-7.054
N13830 X56.232 Y24.159 Z-7.09
N13840 X56.303 Y24.275 Z-7.127
N13850 X56.364 Y24.396 Z-7.163
N13860 X56.413 Y24.523 Z-7.2
N13870 X56.451 Y24.653 Z-7.236
N13880 X56.476 Y24.787 Z-7.272
N13890 X56.49 Y24.922 Z-7.309
N13900 X56.491 Y25.057 Z-7.345
N13910 X56.479 Y25.193 Z-7.381
N13920 X56.456 Y25.326 Z-7.418
N13930 X56.42 Y25.457 Z-7.454
N13940 X56.372 Y25.585 Z-7.491
N13950 X56.313 Y25.707 Z-7.527
N13960 X56.244 Y25.824 Z-7.563
N13970 X56.164 Y25.933 Z-7.6
N13980 X56.074 Y26.035 Z-7.636
N13990 X55.975 Y26.129 Z-7.673
N14000 X55.869 Y26.213 Z-7.709
N14010 X55.755 Y26.287 Z-7.745
N14020 X55.635 Y26.35 Z-7.782
N14030 X55.509 Y26.402 Z-7.818
N14040 X55.38 Y26.443 Z-7.854
N14050 X55.247 Y26.471 Z-7.891
N14060 X55.112 Y26.487 Z-7.927
N14070 X54.977 Y26.492 Z-7.964
N14080 X54.841 Y26.483 Z-8.
N14090 X54.707 Y26.463 F1300.
N14100 X54.575 Y26.43
N14110 X54.447 Y26.385
N14120 X54.323 Y26.329
N14130 X54.205 Y26.262
N14140 X54.093 Y26.185
N14150 X53.99 Y26.097
N14160 X53.894 Y26.001
N14170 X53.807 Y25.896
N14180 X53.731 Y25.784
N14190 X53.665 Y25.665
N14200 X53.61 Y25.541
N14210 X53.566 Y25.413
N14220 X53.535 Y25.28
N14230 X53.515 Y25.146
N14240 X53.508 Y25.01
N14250 X53.514 Y24.875
N14260 X53.531 Y24.74
N14270 X53.561 Y24.608
N14280 X53.602 Y24.478
N14290 X53.656 Y24.353
N14300 X53.72 Y24.234
N14310 X53.795 Y24.121
N14320 X53.88 Y24.015
N14330 X53.974 Y23.917
N14340 X54.077 Y23.828
N14350 X54.187 Y23.749
N14360 X54.304 Y23.68
N14370 X54.492 Y23.593
N14380 X54.686 Y23.542
N14390 X54.82 Y23.519
N14400 X54.956 Y23.509
N14410 X55.091 Y23.511
N14420 X55.226 Y23.526
N14430 X55.36 Y23.552
N14440 X55.49 Y23.591
N14450 X55.616 Y23.641
N14460 X55.737 Y23.703
N14470 X55.852 Y23.775
N14480 X55.96 Y23.858
N14490 X56.059 Y23.95
N14500 X56.151 Y24.051
N14510 X56.232 Y24.159
N14520 X56.303 Y24.275
N14530 X56.364 Y24.396
N14540 X56.413 Y24.523
N14550 X56.451 Y24.653
N14560 X56.476 Y24.787
N14570 X56.49 Y24.922
N14580 X56.491 Y25.057
N14590 X56.479 Y25.193
N14600 X56.456 Y25.326
N14610 X56.42 Y25.457
N14620 X56.372 Y25.585
N14630 X56.313 Y25.707
N14640 X56.244 Y25.824
N14650 X56.164 Y25.933
N14660 X56.074 Y26.035
N14670 X55.975 Y26.129
N14680 X55.869 Y26.213
N14690 X55.755 Y26.287
N14700 X55.635 Y26.35
N14710 X55.509 Y26.402
N14720 X55.38 Y26.443
N14730 X55.247 Y26.471
N14740 X55.112 Y26.487
N14750 X54.977 Y26.492
N14760 X54.841 Y26.483
N14770 X54.537 Y28.46
N14780 X54.234 Y30.437
N14790 X53.92 Y30.389
N14800 X53.434 Y30.268
N14810 X52.961 Y30.104
N14820 X52.506 Y29.897
N14830 X52.071 Y29.65
N14840 X51.66 Y29.365
N14850 X51.277 Y29.043
N14860 X50.925 Y28.687
N14870 X50.606 Y28.302
N14880 X50.324 Y27.888
N14890 X50.081 Y27.451
N14900 X49.879 Y26.994
N14910 X49.718 Y26.52
N14920 X49.602 Y26.033
N14930 X49.531 Y25.538
N14940 X49.504 Y25.039
N14950 X49.524 Y24.539
N14960 X49.588 Y24.043
N14970 X49.698 Y23.554
N14980 X49.851 Y23.078
N14990 X50.047 Y22.618
N15000 X50.284 Y22.177
N15010 X50.561 Y21.76
N15020 X50.874 Y21.37
N15030 X51.221 Y21.01
N15040 X51.599 Y20.683
N15050 X52.006 Y20.391
N15060 X52.437 Y20.138
N15070 X52.919 Y19.912
N15080 X53.188 Y19.809
N15090 X53.314 Y19.767
N15100 X53.844 Y19.627
N15110 X54.338 Y19.544
N15120 X54.836 Y19.507
N15130 X55.337 Y19.514
N15140 X55.834 Y19.568
N15150 X56.325 Y19.666
N15160 X56.804 Y19.809
N15170 X57.269 Y19.994
N15180 X57.715 Y20.221
N15190 X58.138 Y20.488
N15200 X58.535 Y20.792
N15210 X58.903 Y21.131
N15220 X59.239 Y21.502
N15230 X59.539 Y21.902
N15240 X59.802 Y22.327
N15250 X60.025 Y22.775
N15260 X60.207 Y23.241
N15270 X60.345 Y23.722
N15280 X60.439 Y24.214
N15290 X60.488 Y24.711
N15300 X60.492 Y25.212
N15310 X60.45 Y25.71
N15320 X60.363 Y26.203
N15330 X60.231 Y26.685
N15340 X60.056 Y27.154
N15350 X59.839 Y27.605
N15360 X59.582 Y28.034
N15370 X59.287 Y28.438
N15380 X58.957 Y28.814
N15390 X58.594 Y29.158
N15400 X58.201 Y29.468
N15410 X57.781 Y29.74
N15420 X57.339 Y29.973
N15430 X56.877 Y30.166
N15440 X56.399 Y30.315
N15450 X55.91 Y30.42
N15460 X55.413 Y30.48
N15470 X54.913 Y30.495
N15480 X54.414 Y30.465
N15490 X54.234 Y30.437
N15500 X53.93 Y32.414
N15510 X53.627 Y34.391
N15520 X53.132 Y34.315
N15530 X52.293 Y34.106
N15540 X51.476 Y33.822
N15550 X50.689 Y33.465
N15560 X49.937 Y33.038
N15570 X49.227 Y32.544
N15580 X48.565 Y31.988
N15590 X47.956 Y31.374
N15600 X47.405 Y30.707
N15610 X46.918 Y29.993
N15620 X46.497 Y29.237
N15630 X46.147 Y28.446
N15640 X45.87 Y27.627
N15650 X45.669 Y26.786
N15660 X45.546 Y25.93
N15670 X45.5 Y25.067
N15680 X45.534 Y24.202
N15690 X45.645 Y23.345
N15700 X45.835 Y22.501
N15710 X46.1 Y21.678
N15720 X46.439 Y20.882
N15730 X46.849 Y20.121
N15740 X47.326 Y19.4
N15750 X47.867 Y18.725
N15760 X48.467 Y18.103
N15770 X49.122 Y17.537
N15780 X49.825 Y17.034
N15790 X50.57 Y16.596
N15800 X51.353 Y16.228
N15810 X51.836 Y16.044
N15820 X52.166 Y15.933
N15830 X53.002 Y15.712
N15840 X53.855 Y15.569
N15850 X54.717 Y15.504
N15860 X55.582 Y15.518
N15870 X56.442 Y15.61
N15880 X57.29 Y15.78
N15890 X58.119 Y16.026
N15900 X58.922 Y16.347
N15910 X59.692 Y16.74
N15920 X60.424 Y17.201
N15930 X61.111 Y17.726
N15940 X61.747 Y18.312
N15950 X62.327 Y18.953
N15960 X62.847 Y19.645
N15970 X63.301 Y20.38
N15980 X63.687 Y21.154
N15990 X64. Y21.96
N16000 X64.24 Y22.791
N16010 X64.402 Y23.64
N16020 X64.487 Y24.501
N16030 X64.493 Y25.366
N16040 X64.42 Y26.228
N16050 X64.27 Y27.079
N16060 X64.042 Y27.913
N16070 X63.74 Y28.724
N16080 X63.365 Y29.503
N16090 X62.921 Y30.245
N16100 X62.411 Y30.944
N16110 X61.84 Y31.593
N16120 X61.212 Y32.188
N16130 X60.533 Y32.723
N16140 X59.808 Y33.194
N16150 X59.043 Y33.597
N16160 X58.244 Y33.929
N16170 X57.419 Y34.187
N16180 X56.573 Y34.369
N16190 X55.715 Y34.473
N16200 X54.85 Y34.499
N16210 X53.987 Y34.446
N16220 X53.627 Y34.391
N16230 X53.323 Y34.313 Z-7.916
N16240 X53.04 Y34.177 Z-7.832
N16250 X52.789 Y33.989 Z-7.747
N16260 X52.58 Y33.756 Z-7.663
N16270 X52.42 Y33.486 Z-7.579
N16280 X52.316 Y33.19 Z-7.495
N16290 X52.271 Y32.879 Z-7.411
N16300 X52.288 Y32.566 Z-7.327
N16310 Z2.673 F2000.
N16320 G0 X55.984 Y23.88
N16330 Z2.01
N16340 G1 Z-7.99 F125.
N16350 X56.059 Y23.95 Z-8.018
N16360 X56.151 Y24.051 Z-8.054
N16370 X56.232 Y24.159 Z-8.09
N16380 X56.303 Y24.275 Z-8.127
N16390 X56.364 Y24.396 Z-8.163
N16400 X56.413 Y24.523 Z-8.2
N16410 X56.451 Y24.653 Z-8.236
N16420 X56.476 Y24.787 Z-8.272
N16430 X56.49 Y24.922 Z-8.309
N16440 X56.491 Y25.057 Z-8.345
N16450 X56.479 Y25.193 Z-8.381
N16460 X56.456 Y25.326 Z-8.418
N16470 X56.42 Y25.457 Z-8.454
N16480 X56.372 Y25.585 Z-8.491
N16490 X56.313 Y25.707 Z-8.527
N16500 X56.244 Y25.824 Z-8.563
N16510 X56.164 Y25.933 Z-8.6
N16520 X56.074 Y26.035 Z-8.636
N16530 X55.975 Y26.129 Z-8.673
N16540 X55.869 Y26.213 Z-8.709
N16550 X55.755 Y26.287 Z-8.745
N16560 X55.635 Y26.35 Z-8.782
N16570 X55.509 Y26.402 Z-8.818
N16580 X55.38 Y26.443 Z-8.854
N16590 X55.247 Y26.471 Z-8.891
N16600 X55.112 Y26.487 Z-8.927
N16610 X54.977 Y26.492 Z-8.964
N16620 X54.841 Y26.483 Z-9.
N16630 X54.707 Y26.463 F1300.
N16640 X54.575 Y26.43
N16650 X54.447 Y26.385
N16660 X54.323 Y26.329
N16670 X54.205 Y26.262
N16680 X54.093 Y26.185
N16690 X53.99 Y26.097
N16700 X53.894 Y26.001
N16710 X53.807 Y25.896
N16720 X53.731 Y25.784
N16730 X53.665 Y25.665
N16740 X53.61 Y25.541
N16750 X53.566 Y25.413
N16760 X53.535 Y25.28
N16770 X53.515 Y25.146
N16780 X53.508 Y25.01
N16790 X53.514 Y24.875
N16800 X53.531 Y24.74
N16810 X53.561 Y24.608
N16820 X53.602 Y24.478
N16830 X53.656 Y24.353
N16840 X53.72 Y24.234
N16850 X53.795 Y24.121
N16860 X53.88 Y24.015
N16870 X53.974 Y23.917
N16880 X54.077 Y23.828
N16890 X54.187 Y23.749
N16900 X54.304 Y23.68
N16910 X54.492 Y23.593
N16920 X54.686 Y23.542
N16930 X54.82 Y23.519
N16940 X54.956 Y23.509
N16950 X55.091 Y23.511
N16960 X55.226 Y23.526
N16970 X55.36 Y23.552
N16980 X55.49 Y23.591
N16990 X55.616 Y23.641
N17000 X55.737 Y23.703
N17010 X55.852 Y23.775
N17020 X55.96 Y23.858
N17030 X56.059 Y23.95
N17040 X56.151 Y24.051
N17050 X56.232 Y24.159
N17060 X56.303 Y24.275
N17070 X56.364 Y24.396
N17080 X56.413 Y24.523
N17090 X56.451 Y24.653
N17100 X56.476 Y24.787
N17110 X56.49 Y24.922
N17120 X56.491 Y25.057
N17130 X56.479 Y25.193
N17140 X56.456 Y25.326
N17150 X56.42 Y25.457
N17160 X56.372 Y25.585
N17170 X56.313 Y25.707
N17180 X56.244 Y25.824
N17190 X56.164 Y25.933
N17200 X56.074 Y26.035
N17210 X55.975 Y26.129
N17220 X55.869 Y26.213
N17230 X55.755 Y26.287
N17240 X55.635 Y26.35
N17250 X55.509 Y26.402
N17260 X55.38 Y26.443
N17270 X55.247 Y26.471
N17280 X55.112 Y26.487
N17290 X54.977 Y26.492
N17300 X54.841 Y26.483
N17310 X54.537 Y28.46
N17320 X54.234 Y30.437
N17330 X53.92 Y30.389
N17340 X53.434 Y30.268
N17350 X52.961 Y30.104
N17360 X52.506 Y29.897
N17370 X52.071 Y29.65
N17380 X51.66 Y29.365
N17390 X51.277 Y29.043
N17400 X50.925 Y28.687
N17410 X50.606 Y28.302
N17420 X50.324 Y27.888
N17430 X50.081 Y27.451
N17440 X49.879 Y26.994
N17450 X49.718 Y26.52
N17460 X49.602 Y26.033
N17470 X49.531 Y25.538
N17480 X49.504 Y25.039
N17490 X49.524 Y24.539
N17500 X49.588 Y24.043
N17510 X49.698 Y23.554
N17520 X49.851 Y23.078
N17530 X50.047 Y22.618
N17540 X50.284 Y22.177
N17550 X50.561 Y21.76
N17560 X50.874 Y21.37
N17570 X51.221 Y21.01
N17580 X51.599 Y20.683
N17590 X52.006 Y20.391
N17600 X52.437 Y20.138
N17610 X52.919 Y19.912
N17620 X53.188 Y19.809
N17630 X53.314 Y19.767
N17640 X53.844 Y19.627
N17650 X54.338 Y19.544
N17660 X54.836 Y19.507
N17670 X55.337 Y19.514
N17680 X55.834 Y19.568
N17690 X56.325 Y19.666
N17700 X56.804 Y19.809
N17710 X57.269 Y19.994
N17720 X57.715 Y20.221
N17730 X58.138 Y20.488
N17740 X58.535 Y20.792
N17750 X58.903 Y21.131
N17760 X59.239 Y21.502
N17770 X59.539 Y21.902
N17780 X59.802 Y22.327
N17790 X60.025 Y22.775
N17800 X60.207 Y23.241
N17810 X60.345 Y23.722
N17820 X60.439 Y24.214
N17830 X60.488 Y24.711
N17840 X60.492 Y25.212
N17850 X60.45 Y25.71
N17860 X60.363 Y26.203
N17870 X60.231 Y26.685
N17880 X60.056 Y27.154
N17890 X59.839 Y27.605
N17900 X59.582 Y28.034
N17910 X59.287 Y28.438
N17920 X58.957 Y28.814
N17930 X58.594 Y29.158
N17940 X58.201 Y29.468
N17950 X57.781 Y29.74
N17960 X57.339 Y29.973
N17970 X56.877 Y30.166
N17980 X56.399 Y30.315
N17990 X55.91 Y30.42
N18000 X55.413 Y30.48
N18010 X54.913 Y30.495
N18020 X54.414 Y30.465
N18030 X54.234 Y30.437
N18040 X53.93 Y32.414
N18050 X53.627 Y34.391
N18060 X53.132 Y34.315
N18070 X52.293 Y34.106
N18080 X51.476 Y33.822
N18090 X50.689 Y33.465
N18100 X49.937 Y33.038
N18110 X49.227 Y32.544
N18120 X48.565 Y31.988
N18130 X47.956 Y31.374
N18140 X47.405 Y30.707
N18150 X46.918 Y29.993
N18160 X46.497 Y29.237
N18170 X46.147 Y28.446
N18180 X45.87 Y27.627
N18190 X45.669 Y26.786
N18200 X45.546 Y25.93
N18210 X45.5 Y25.067
N18220 X45.534 Y24.202
N18230 X45.645 Y23.345
N18240 X45.835 Y22.501
N18250 X46.1 Y21.678
N18260 X46.439 Y20.882
N18270 X46.849 Y20.121
N18280 X47.326 Y19.4
N18290 X47.867 Y18.725
N18300 X48.467 Y18.103
N18310 X49.122 Y17.537
N18320 X49.825 Y17.034
N18330 X50.57 Y16.596
N18340 X51.353 Y16.228
N18350 X51.836 Y16.044
N18360 X52.166 Y15.933
N18370 X53.002 Y15.712
N18380 X53.855 Y15.569
N18390 X54.717 Y15.504
N18400 X55.582 Y15.518
N18410 X56.442 Y15.61
N18420 X57.29 Y15.78
N18430 X58.119 Y16.026
N18440 X58.922 Y16.347
N18450 X59.692 Y16.74
N18460 X60.424 Y17.201
N18470 X61.111 Y17.726
N18480 X61.747 Y18.312
N18490 X62.327 Y18.953
N18500 X62.847 Y19.645
N18510 X63.301 Y20.38
N18520 X63.687 Y21.154
N18530 X64. Y21.96
N18540 X64.24 Y22.791
N18550 X64.402 Y23.64
N18560 X64.487 Y24.501
N18570 X64.493 Y25.366
N18580 X64.42 Y26.228
N18590 X64.27 Y27.079
N18600 X64.042 Y27.913
N18610 X63.74 Y28.724
N18620 X63.365 Y29.503
N18630 X62.921 Y30.245
N18640 X62.411 Y30.944
N18650 X61.84 Y31.593
N18660 X61.212 Y32.188
N18670 X60.533 Y32.723
N18680 X59.808 Y33.194
N18690 X59.043 Y33.597
N18700 X58.244 Y33.929
N18710 X57.419 Y34.187
N18720 X56.573 Y34.369
N18730 X55.715 Y34.473
N18740 X54.85 Y34.499
N18750 X53.987 Y34.446
N18760 X53.627 Y34.391
N18770 X53.323 Y34.313 Z-8.916
N18780 X53.04 Y34.177 Z-8.832
N18790 X52.789 Y33.989 Z-8.747
N18800 X52.58 Y33.756 Z-8.663
N18810 X52.42 Y33.486 Z-8.579
N18820 X52.316 Y33.19 Z-8.495
N18830 X52.271 Y32.879 Z-8.411
N18840 X52.288 Y32.566 Z-8.327
N18850 Z1.673 F2000.
N18860 G0 X55.984 Y23.88
N18870 Z1.01
N18880 G1 Z-8.99 F125.
N18890 X56.059 Y23.95 Z-9.018
N18900 X56.151 Y24.051 Z-9.054
N18910 X56.232 Y24.159 Z-9.09
N18920 X56.303 Y24.275 Z-9.127
N18930 X56.364 Y24.396 Z-9.163
N18940 X56.413 Y24.523 Z-9.2
N18950 X56.451 Y24.653 Z-9.236
N18960 X56.476 Y24.787 Z-9.272
N18970 X56.49 Y24.922 Z-9.309
N18980 X56.491 Y25.057 Z-9.345
N18990 X56.479 Y25.193 Z-9.381
N19000 X56.456 Y25.326 Z-9.418
N19010 X56.42 Y25.457 Z-9.454
N19020 X56.372 Y25.585 Z-9.491
N19030 X56.313 Y25.707 Z-9.527
N19040 X56.244 Y25.824 Z-9.563
N19050 X56.164 Y25.933 Z-9.6
N19060 X56.074 Y26.035 Z-9.636
N19070 X55.975 Y26.129 Z-9.673
N19080 X55.869 Y26.213 Z-9.709
N19090 X55.755 Y26.287 Z-9.745
N19100 X55.635 Y26.35 Z-9.782
N19110 X55.509 Y26.402 Z-9.818
N19120 X55.38 Y26.443 Z-9.854
N19130 X55.247 Y26.471 Z-9.891
N19140 X55.112 Y26.487 Z-9.927
N19150 X54.977 Y26.492 Z-9.964
N19160 X54.841 Y26.483 Z-10.
N19170 X54.707 Y26.463 F1300.
N19180 X54.575 Y26.43
N19190 X54.447 Y26.385
N19200 X54.323 Y26.329
N19210 X54.205 Y26.262
N19220 X54.093 Y26.185
N19230 X53.99 Y26.097
N19240 X53.894 Y26.001
N19250 X53.807 Y25.896
N19260 X53.731 Y25.784
N19270 X53.665 Y25.665
N19280 X53.61 Y25.541
N19290 X53.566 Y25.413
N19300 X53.535 Y25.28
N19310 X53.515 Y25.146
N19320 X53.508 Y25.01
N19330 X53.514 Y24.875
N19340 X53.531 Y24.74
N19350 X53.561 Y24.608
N19360 X53.602 Y24.478
N19370 X53.656 Y24.353
N19380 X53.72 Y24.234
N19390 X53.795 Y24.121
N19400 X53.88 Y24.015
N19410 X53.974 Y23.917
N19420 X54.077 Y23.828
N19430 X54.187 Y23.749
N19440 X54.304 Y23.68
N19450 X54.492 Y23.593
N19460 X54.686 Y23.542
N19470 X54.82 Y23.519
N19480 X54.956 Y23.509
N19490 X55.091 Y23.511
N19500 X55.226 Y23.526
N19510 X55.36 Y23.552
N19520 X55.49 Y23.591
N19530 X55.616 Y23.641
N19540 X55.737 Y23.703
N19550 X55.852 Y23.775
N19560 X55.96 Y23.858
N19570 X56.059 Y23.95
N19580 X56.151 Y24.051
N19590 X56.232 Y24.159
N19600 X56.303 Y24.275
N19610 X56.364 Y24.396
N19620 X56.413 Y24.523
N19630 X56.451 Y24.653
N19640 X56.476 Y24.787
N19650 X56.49 Y24.922
N19660 X56.491 Y25.057
N19670 X56.479 Y25.193
N19680 X56.456 Y25.326
N19690 X56.42 Y25.457
N19700 X56.372 Y25.585
N19710 X56.313 Y25.707
N19720 X56.244 Y25.824
N19730 X56.164 Y25.933
N19740 X56.074 Y26.035
N19750 X55.975 Y26.129
N19760 X55.869 Y26.213
N19770 X55.755 Y26.287
N19780 X55.635 Y26.35
N19790 X55.509 Y26.402
N19800 X55.38 Y26.443
N19810 X55.247 Y26.471
N19820 X55.112 Y26.487
N19830 X54.977 Y26.492
N19840 X54.841 Y26.483
N19850 X54.537 Y28.46
N19860 X54.234 Y30.437
N19870 X53.92 Y30.389
N19880 X53.434 Y30.268
N19890 X52.961 Y30.104
N19900 X52.506 Y29.897
N19910 X52.071 Y29.65
N19920 X51.66 Y29.365
N19930 X51.277 Y29.043
N19940 X50.925 Y28.687
N19950 X50.606 Y28.302
N19960 X50.324 Y27.888
N19970 X50.081 Y27.451
N19980 X49.879 Y26.994
N19990 X49.718 Y26.52
N20000 X49.602 Y26.033
N20010 X49.531 Y25.538
N20020 X49.504 Y25.039
N20030 X49.524 Y24.539
N20040 X49.588 Y24.043
N20050 X49.698 Y23.554
N20060 X49.851 Y23.078
N20070 X50.047 Y22.618
N20080 X50.284 Y22.177
N20090 X50.561 Y21.76
N20100 X50.874 Y21.37
N20110 X51.221 Y21.01
N20120 X51.599 Y20.683
N20130 X52.006 Y20.391
N20140 X52.437 Y20.138
N20150 X52.919 Y19.912
N20160 X53.188 Y19.809
N20170 X53.314 Y19.767
N20180 X53.844 Y19.627
N20190 X54.338 Y19.544
N20200 X54.836 Y19.507
N20210 X55.337 Y19.514
N20220 X55.834 Y19.568
N20230 X56.325 Y19.666
N20240 X56.804 Y19.809
N20250 X57.269 Y19.994
N20260 X57.715 Y20.221
N20270 X58.138 Y20.488
N20280 X58.535 Y20.792
N20290 X58.903 Y21.131
N20300 X59.239 Y21.502
N20310 X59.539 Y21.902
N20320 X59.802 Y22.327
N20330 X60.025 Y22.775
N20340 X60.207 Y23.241
N20350 X60.345 Y23.722
N20360 X60.439 Y24.214
N20370 X60.488 Y24.711
N20380 X60.492 Y25.212
N20390 X60.45 Y25.71
N20400 X60.363 Y26.203
N20410 X60.231 Y26.685
N20420 X60.056 Y27.154
N20430 X59.839 Y27.605
N20440 X59.582 Y28.034
N20450 X59.287 Y28.438
N20460 X58.957 Y28.814
N20470 X58.594 Y29.158
N20480 X58.201 Y29.468
N20490 X57.781 Y29.74
N20500 X57.339 Y29.973
N20510 X56.877 Y30.166
N20520 X56.399 Y30.315
N20530 X55.91 Y30.42
N20540 X55.413 Y30.48
N20550 X54.913 Y30.495
N20560 X54.414 Y30.465
N20570 X54.234 Y30.437
N20580 X53.93 Y32.414
N20590 X53.627 Y34.391
N20600 X53.132 Y34.315
N20610 X52.293 Y34.106
N20620 X51.476 Y33.822
N20630 X50.689 Y33.465
N20640 X49.937 Y33.038
N20650 X49.227 Y32.544
N20660 X48.565 Y31.988
N20670 X47.956 Y31.374
N20680 X47.405 Y30.707
N20690 X46.918 Y29.993
N20700 X46.497 Y29.237
N20710 X46.147 Y28.446
N20720 X45.87 Y27.627
N20730 X45.669 Y26.786
N20740 X45.546 Y25.93
N20750 X45.5 Y25.067
N20760 X45.534 Y24.202
N20770 X45.645 Y23.345
N20780 X45.835 Y22.501
N20790 X46.1 Y21.678
N20800 X46.439 Y20.882
N20810 X46.849 Y20.121
N20820 X47.326 Y19.4
N20830 X47.867 Y18.725
N20840 X48.467 Y18.103
N20850 X49.122 Y17.537
N20860 X49.825 Y17.034
N20870 X50.57 Y16.596
N20880 X51.353 Y16.228
N20890 X51.836 Y16.044
N20900 X52.166 Y15.933
N20910 X53.002 Y15.712
N20920 X53.855 Y15.569
N20930 X54.717 Y15.504
N20940 X55.582 Y15.518
N20950 X56.442 Y15.61
N20960 X57.29 Y15.78
N20970 X58.119 Y16.026
N20980 X58.922 Y16.347
N20990 X59.692 Y16.74
N21000 X60.424 Y17.201
N21010 X61.111 Y17.726
N21020 X61.747 Y18.312
N21030 X62.327 Y18.953
N21040 X62.847 Y19.645
N21050 X63.301 Y20.38
N21060 X63.687 Y21.154
N21070 X64. Y21.96
N21080 X64.24 Y22.791
N21090 X64.402 Y23.64
N21100 X64.487 Y24.501
N21110 X64.493 Y25.366
N21120 X64.42 Y26.228
N21130 X64.27 Y27.079
N21140 X64.042 Y27.913
N21150 X63.74 Y28.724
N21160 X63.365 Y29.503
N21170 X62.921 Y30.245
N21180 X62.411 Y30.944
N21190 X61.84 Y31.593
N21200 X61.212 Y32.188
N21210 X60.533 Y32.723
N21220 X59.808 Y33.194
N21230 X59.043 Y33.597
N21240 X58.244 Y33.929
N21250 X57.419 Y34.187
N21260 X56.573 Y34.369
N21270 X55.715 Y34.473
N21280 X54.85 Y34.499
N21290 X53.987 Y34.446
N21300 X53.627 Y34.391
N21310 X53.323 Y34.313 Z-9.916
N21320 X53.04 Y34.177 Z-9.832
N21330 X52.789 Y33.989 Z-9.747
N21340 X52.58 Y33.756 Z-9.663
N21350 X52.42 Y33.486 Z-9.579
N21360 X52.316 Y33.19 Z-9.495
N21370 X52.271 Y32.879 Z-9.411
N21380 X52.288 Y32.566 Z-9.327
N21390 Z.673 F2000.
N21400 G0 X55.984 Y23.88
N21410 Z.01
N21420 G1 Z-9.99 F125.
N21430 X56.059 Y23.95 Z-10.018
N21440 X56.151 Y24.051 Z-10.054
N21450 X56.232 Y24.159 Z-10.09
N21460 X56.303 Y24.275 Z-10.127
N21470 X56.364 Y24.396 Z-10.163
N21480 X56.413 Y24.523 Z-10.2
N21490 X56.451 Y24.653 Z-10.236
N21500 X56.476 Y24.787 Z-10.272
N21510 X56.49 Y24.922 Z-10.309
N21520 X56.491 Y25.057 Z-10.345
N21530 X56.479 Y25.193 Z-10.381
N21540 X56.456 Y25.326 Z-10.418
N21550 X56.42 Y25.457 Z-10.454
N21560 X56.372 Y25.585 Z-10.491
N21570 X56.313 Y25.707 Z-10.527
N21580 X56.244 Y25.824 Z-10.563
N21590 X56.164 Y25.933 Z-10.6
N21600 X56.074 Y26.035 Z-10.636
N21610 X55.975 Y26.129 Z-10.673
N21620 X55.869 Y26.213 Z-10.709
N21630 X55.755 Y26.287 Z-10.745
N21640 X55.635 Y26.35 Z-10.782
N21650 X55.509 Y26.402 Z-10.818
N21660 X55.38 Y26.443 Z-10.854
N21670 X55.247 Y26.471 Z-10.891
N21680 X55.112 Y26.487 Z-10.927
N21690 X54.977 Y26.492 Z-10.964
N21700 X54.841 Y26.483 Z-11.
N21710 X54.707 Y26.463 F1300.
N21720 X54.575 Y26.43
N21730 X54.447 Y26.385
N21740 X54.323 Y26.329
N21750 X54.205 Y26.262
N21760 X54.093 Y26.185
N21770 X53.99 Y26.097
N21780 X53.894 Y26.001
N21790 X53.807 Y25.896
N21800 X53.731 Y25.784
N21810 X53.665 Y25.665
N21820 X53.61 Y25.541
N21830 X53.566 Y25.413
N21840 X53.535 Y25.28
N21850 X53.515 Y25.146
N21860 X53.508 Y25.01
N21870 X53.514 Y24.875
N21880 X53.531 Y24.74
N21890 X53.561 Y24.608
N21900 X53.602 Y24.478
N21910 X53.656 Y24.353
N21920 X53.72 Y24.234
N21930 X53.795 Y24.121
N21940 X53.88 Y24.015
N21950 X53.974 Y23.917
N21960 X54.077 Y23.828
N21970 X54.187 Y23.749
N21980 X54.304 Y23.68
N21990 X54.492 Y23.593
N22000 X54.686 Y23.542
N22010 X54.82 Y23.519
N22020 X54.956 Y23.509
N22030 X55.091 Y23.511
N22040 X55.226 Y23.526
N22050 X55.36 Y23.552
N22060 X55.49 Y23.591
N22070 X55.616 Y23.641
N22080 X55.737 Y23.703
N22090 X55.852 Y23.775
N22100 X55.96 Y23.858
N22110 X56.059 Y23.95
N22120 X56.151 Y24.051
N22130 X56.232 Y24.159
N22140 X56.303 Y24.275
N22150 X56.364 Y24.396
N22160 X56.413 Y24.523
N22170 X56.451 Y24.653
N22180 X56.476 Y24.787
N22190 X56.49 Y24.922
N22200 X56.491 Y25.057
N22210 X56.479 Y25.193
N22220 X56.456 Y25.326
N22230 X56.42 Y25.457
N22240 X56.372 Y25.585
N22250 X56.313 Y25.707
N22260 X56.244 Y25.824
N22270 X56.164 Y25.933
N22280 X56.074 Y26.035
N22290 X55.975 Y26.129
N22300 X55.869 Y26.213
N22310 X55.755 Y26.287
N22320 X55.635 Y26.35
N22330 X55.509 Y26.402
N22340 X55.38 Y26.443
N22350 X55.247 Y26.471
N22360 X55.112 Y26.487
N22370 X54.977 Y26.492
N22380 X54.841 Y26.483
N22390 X54.537 Y28.46
N22400 X54.234 Y30.437
N22410 X53.92 Y30.389
N22420 X53.434 Y30.268
N22430 X52.961 Y30.104
N22440 X52.506 Y29.897
N22450 X52.071 Y29.65
N22460 X51.66 Y29.365
N22470 X51.277 Y29.043
N22480 X50.925 Y28.687
N22490 X50.606 Y28.302
N22500 X50.324 Y27.888
N22510 X50.081 Y27.451
N22520 X49.879 Y26.994
N22530 X49.718 Y26.52
N22540 X49.602 Y26.033
N22550 X49.531 Y25.538
N22560 X49.504 Y25.039
N22570 X49.524 Y24.539
N22580 X49.588 Y24.043
N22590 X49.698 Y23.554
N22600 X49.851 Y23.078
N22610 X50.047 Y22.618
N22620 X50.284 Y22.177
N22630 X50.561 Y21.76
N22640 X50.874 Y21.37
N22650 X51.221 Y21.01
N22660 X51.599 Y20.683
N22670 X52.006 Y20.391
N22680 X52.437 Y20.138
N22690 X52.919 Y19.912
N22700 X53.188 Y19.809
N22710 X53.314 Y19.767
N22720 X53.844 Y19.627
N22730 X54.338 Y19.544
N22740 X54.836 Y19.507
N22750 X55.337 Y19.514
N22760 X55.834 Y19.568
N22770 X56.325 Y19.666
N22780 X56.804 Y19.809
N22790 X57.269 Y19.994
N22800 X57.715 Y20.221
N22810 X58.138 Y20.488
N22820 X58.535 Y20.792
N22830 X58.903 Y21.131
N22840 X59.239 Y21.502
N22850 X59.539 Y21.902
N22860 X59.802 Y22.327
N22870 X60.025 Y22.775
N22880 X60.207 Y23.241
N22890 X60.345 Y23.722
N22900 X60.439 Y24.214
N22910 X60.488 Y24.711
N22920 X60.492 Y25.212
N22930 X60.45 Y25.71
N22940 X60.363 Y26.203
N22950 X60.231 Y26.685
N22960 X60.056 Y27.154
N22970 X59.839 Y27.605
N22980 X59.582 Y28.034
N22990 X59.287 Y28.438
N23000 X58.957 Y28.814
N23010 X58.594 Y29.158
N23020 X58.201 Y29.468
N23030 X57.781 Y29.74
N23040 X57.339 Y29.973
N23050 X56.877 Y30.166
N23060 X56.399 Y30.315
N23070 X55.91 Y30.42
N23080 X55.413 Y30.48
N23090 X54.913 Y30.495
N23100 X54.414 Y30.465
N23110 X54.234 Y30.437
N23120 X53.93 Y32.414
N23130 X53.627 Y34.391
N23140 X53.132 Y34.315
N23150 X52.293 Y34.106
N23160 X51.476 Y33.822
N23170 X50.689 Y33.465
N23180 X49.937 Y33.038
N23190 X49.227 Y32.544
N23200 X48.565 Y31.988
N23210 X47.956 Y31.374
N23220 X47.405 Y30.707
N23230 X46.918 Y29.993
N23240 X46.497 Y29.237
N23250 X46.147 Y28.446
N23260 X45.87 Y27.627
N23270 X45.669 Y26.786
N23280 X45.546 Y25.93
N23290 X45.5 Y25.067
N23300 X45.534 Y24.202
N23310 X45.645 Y23.345
N23320 X45.835 Y22.501
N23330 X46.1 Y21.678
N23340 X46.439 Y20.882
N23350 X46.849 Y20.121
N23360 X47.326 Y19.4
N23370 X47.867 Y18.725
N23380 X48.467 Y18.103
N23390 X49.122 Y17.537
N23400 X49.825 Y17.034
N23410 X50.57 Y16.596
N23420 X51.353 Y16.228
N23430 X51.836 Y16.044
N23440 X52.166 Y15.933
N23450 X53.002 Y15.712
N23460 X53.855 Y15.569
N23470 X54.717 Y15.504
N23480 X55.582 Y15.518
N23490 X56.442 Y15.61
N23500 X57.29 Y15.78
N23510 X58.119 Y16.026
N23520 X58.922 Y16.347
N23530 X59.692 Y16.74
N23540 X60.424 Y17.201
N23550 X61.111 Y17.726
N23560 X61.747 Y18.312
N23570 X62.327 Y18.953
N23580 X62.847 Y19.645
N23590 X63.301 Y20.38
N23600 X63.687 Y21.154
N23610 X64. Y21.96
N23620 X64.24 Y22.791
N23630 X64.402 Y23.64
N23640 X64.487 Y24.501
N23650 X64.493 Y25.366
N23660 X64.42 Y26.228
N23670 X64.27 Y27.079
N23680 X64.042 Y27.913
N23690 X63.74 Y28.724
N23700 X63.365 Y29.503
N23710 X62.921 Y30.245
N23720 X62.411 Y30.944
N23730 X61.84 Y31.593
N23740 X61.212 Y32.188
N23750 X60.533 Y32.723
N23760 X59.808 Y33.194
N23770 X59.043 Y33.597
N23780 X58.244 Y33.929
N23790 X57.419 Y34.187
N23800 X56.573 Y34.369
N23810 X55.715 Y34.473
N23820 X54.85 Y34.499
N23830 X53.987 Y34.446
N23840 X53.627 Y34.391
N23850 X53.323 Y34.313 Z-10.916
N23860 X53.04 Y34.177 Z-10.832
N23870 X52.789 Y33.989 Z-10.747
N23880 X52.58 Y33.756 Z-10.663
N23890 X52.42 Y33.486 Z-10.579
N23900 X52.316 Y33.19 Z-10.495
N23910 X52.271 Y32.879 Z-10.411
N23920 X52.288 Y32.566 Z-10.327
N23930 Z-.327 F2000.
N23940 G0 Z7.
N23950 X80. Y57.01
N23960 G1 Z-3. F125.
N23970 Y50.
N23980 Y38.41 F1300.
N23990 X79.993 Y38.413
N24000 G3 X79.453 Y38.609 I-1.631 J-3.652
N24010 G1 X78.92 Y38.76
N24020 X78.395 Y38.871
N24030 X77.864 Y38.947
N24040 X77.466 Y38.984
N24050 X77.168 Y38.996
N24060 X77.003 Y39.
N24070 X76.907 Y39.001
N24080 X76.17 Y40.091
N24090 X76.03 Y40.286
N24100 X75.23 Y41.33
N24110 X75.078 Y41.516
N24120 X74.217 Y42.511
N24130 X74.055 Y42.687
N24140 X73.135 Y43.629
N24150 X72.963 Y43.795
N24160 X71.989 Y44.68
N24170 X71.807 Y44.836
N24180 X70.781 Y45.661
N24190 X70.59 Y45.805
N24200 X69.517 Y46.568
N24210 X69.318 Y46.7
N24220 X68.996 Y46.902
N24230 X68.994 Y48.136
N24240 X68.98 Y48.456
N24250 X68.943 Y48.917
N24260 X68.863 Y49.448
N24270 X68.746 Y49.98
N24280 X68.742 Y50.
N24290 X80.
N24300 Z7. F2000.
N24310 G0 Y57.01
N24320 Z6.
N24330 G1 Z-4. F125.
N24340 Y50.
N24350 Y38.41 F1300.
N24360 X79.993 Y38.413
N24370 G3 X79.453 Y38.609 I-1.631 J-3.652
N24380 G1 X78.92 Y38.76
N24390 X78.395 Y38.871
N24400 X77.864 Y38.947
N24410 X77.466 Y38.984
N24420 X77.168 Y38.996
N24430 X77.003 Y39.
N24440 X76.907 Y39.001
N24450 X76.17 Y40.091
N24460 X76.03 Y40.286
N24470 X75.23 Y41.33
N24480 X75.078 Y41.516
N24490 X74.217 Y42.511
N24500 X74.055 Y42.687
N24510 X73.135 Y43.629
N24520 X72.963 Y43.795
N24530 X71.989 Y44.68
N24540 X71.807 Y44.836
N24550 X70.781 Y45.661
N24560 X70.59 Y45.805
N24570 X69.517 Y46.568
N24580 X69.318 Y46.7
N24590 X68.996 Y46.902
N24600 X68.994 Y48.136
N24610 X68.98 Y48.456
N24620 X68.943 Y48.917
N24630 X68.863 Y49.448
N24640 X68.746 Y49.98
N24650 X68.742 Y50.
N24660 X80.
N24670 Z6. F2000.
N24680 G0 Y57.01
N24690 Z5.
N24700 G1 Z-5. F125.
N24710 Y50.
N24720 Y38.41 F1300.
N24730 X79.993 Y38.413
N24740 G3 X79.453 Y38.609 I-1.631 J-3.652
N24750 G1 X78.92 Y38.76
N24760 X78.395 Y38.871
N24770 X77.864 Y38.947
N24780 X77.466 Y38.984
N24790 X77.168 Y38.996
N24800 X77.003 Y39.
N24810 X76.907 Y39.001
N24820 X76.17 Y40.091
N24830 X76.03 Y40.286
N24840 X75.23 Y41.33
N24850 X75.078 Y41.516
N24860 X74.217 Y42.511
N24870 X74.055 Y42.687
N24880 X73.135 Y43.629
N24890 X72.963 Y43.795
N24900 X71.989 Y44.68
N24910 X71.807 Y44.836
N24920 X70.781 Y45.661
N24930 X70.59 Y45.805
N24940 X69.517 Y46.568
N24950 X69.318 Y46.7
N24960 X68.996 Y46.902
N24970 X68.994 Y48.136
N24980 X68.98 Y48.456
N24990 X68.943 Y48.917
N25000 X68.863 Y49.448
N25010 X68.746 Y49.98
N25020 X68.742 Y50.
N25030 X80.
N25040 Z5. F2000.
N25050 G0 Y57.01
N25060 Z4.
N25070 G1 Z-6. F125.
N25080 Y50.
N25090 Y38.41 F1300.
N25100 X79.993 Y38.413
N25110 G3 X79.453 Y38.609 I-1.631 J-3.652
N25120 G1 X78.92 Y38.76
N25130 X78.395 Y38.871
N25140 X77.864 Y38.947
N25150 X77.466 Y38.984
N25160 X77.168 Y38.996
N25170 X77.003 Y39.
N25180 X76.907 Y39.001
N25190 X76.17 Y40.091
N25200 X76.03 Y40.286
N25210 X75.23 Y41.33
N25220 X75.078 Y41.516
N25230 X74.217 Y42.511
N25240 X74.055 Y42.687
N25250 X73.135 Y43.629
N25260 X72.963 Y43.795
N25270 X71.989 Y44.68
N25280 X71.807 Y44.836
N25290 X70.781 Y45.661
N25300 X70.59 Y45.805
N25310 X69.517 Y46.568
N25320 X69.318 Y46.7
N25330 X68.996 Y46.902
N25340 X68.994 Y48.136
N25350 X68.98 Y48.456
N25360 X68.943 Y48.917
N25370 X68.863 Y49.448
N25380 X68.746 Y49.98
N25390 X68.742 Y50.
N25400 X80.
N25410 Z4. F2000.
N25420 G0 Y57.01
N25430 Z3.
N25440 G1 Z-7. F125.
N25450 Y50.
N25460 Y38.41 F1300.
N25470 X79.993 Y38.413
N25480 G3 X79.453 Y38.609 I-1.631 J-3.652
N25490 G1 X78.92 Y38.76
N25500 X78.395 Y38.871
N25510 X77.864 Y38.947
N25520 X77.466 Y38.984
N25530 X77.168 Y38.996
N25540 X77.003 Y39.
N25550 X76.907 Y39.001
N25560 X76.17 Y40.091
N25570 X76.03 Y40.286
N25580 X75.23 Y41.33
N25590 X75.078 Y41.516
N25600 X74.217 Y42.511
N25610 X74.055 Y42.687
N25620 X73.135 Y43.629
N25630 X72.963 Y43.795
N25640 X71.989 Y44.68
N25650 X71.807 Y44.836
N25660 X70.781 Y45.661
N25670 X70.59 Y45.805
N25680 X69.517 Y46.568
N25690 X69.318 Y46.7
N25700 X68.996 Y46.902
N25710 X68.994 Y48.136
N25720 X68.98 Y48.456
N25730 X68.943 Y48.917
N25740 X68.863 Y49.448
N25750 X68.746 Y49.98
N25760 X68.742 Y50.
N25770 X80.
N25780 Z3. F2000.
N25790 G0 Y57.01
N25800 Z2.
N25810 G1 Z-8. F125.
N25820 Y50.
N25830 Y38.41 F1300.
N25840 X79.993 Y38.413
N25850 G3 X79.453 Y38.609 I-1.631 J-3.652
N25860 G1 X78.92 Y38.76
N25870 X78.395 Y38.871
N25880 X77.864 Y38.947
N25890 X77.466 Y38.984
N25900 X77.168 Y38.996
N25910 X77.003 Y39.
N25920 X76.907 Y39.001
N25930 X76.17 Y40.091
N25940 X76.03 Y40.286
N25950 X75.23 Y41.33
N25960 X75.078 Y41.516
N25970 X74.217 Y42.511
N25980 X74.055 Y42.687
N25990 X73.135 Y43.629
N26000 X72.963 Y43.795
N26010 X71.989 Y44.68
N26020 X71.807 Y44.836
N26030 X70.781 Y45.661
N26040 X70.59 Y45.805
N26050 X69.517 Y46.568
N26060 X69.318 Y46.7
N26070 X68.996 Y46.902
N26080 X68.994 Y48.136
N26090 X68.98 Y48.456
N26100 X68.943 Y48.917
N26110 X68.863 Y49.448
N26120 X68.746 Y49.98
N26130 X68.742 Y50.
N26140 X80.
N26150 Z2. F2000.
N26160 G0 Y57.01
N26170 Z1.
N26180 G1 Z-9. F125.
N26190 Y50.
N26200 Y38.41 F1300.
N26210 X79.993 Y38.413
N26220 G3 X79.453 Y38.609 I-1.631 J-3.652
N26230 G1 X78.92 Y38.76
N26240 X78.395 Y38.871
N26250 X77.864 Y38.947
N26260 X77.466 Y38.984
N26270 X77.168 Y38.996
N26280 X77.003 Y39.
N26290 X76.907 Y39.001
N26300 X76.17 Y40.091
N26310 X76.03 Y40.286
N26320 X75.23 Y41.33
N26330 X75.078 Y41.516
N26340 X74.217 Y42.511
N26350 X74.055 Y42.687
N26360 X73.135 Y43.629
N26370 X72.963 Y43.795
N26380 X71.989 Y44.68
N26390 X71.807 Y44.836
N26400 X70.781 Y45.661
N26410 X70.59 Y45.805
N26420 X69.517 Y46.568
N26430 X69.318 Y46.7
N26440 X68.996 Y46.902
N26450 X68.994 Y48.136
N26460 X68.98 Y48.456
N26470 X68.943 Y48.917
N26480 X68.863 Y49.448
N26490 X68.746 Y49.98
N26500 X68.742 Y50.
N26510 X80.
N26520 Z1. F2000.
N26530 G0 Y57.01
N26540 Z0
N26550 G1 Z-10. F125.
N26560 Y50.
N26570 Y38.41 F1300.
N26580 X79.993 Y38.413
N26590 G3 X79.453 Y38.609 I-1.631 J-3.652
N26600 G1 X78.92 Y38.76
N26610 X78.395 Y38.871
N26620 X77.864 Y38.947
N26630 X77.466 Y38.984
N26640 X77.168 Y38.996
N26650 X77.003 Y39.
N26660 X76.907 Y39.001
N26670 X76.17 Y40.091
N26680 X76.03 Y40.286
N26690 X75.23 Y41.33
N26700 X75.078 Y41.516
N26710 X74.217 Y42.511
N26720 X74.055 Y42.687
N26730 X73.135 Y43.629
N26740 X72.963 Y43.795
N26750 X71.989 Y44.68
N26760 X71.807 Y44.836
N26770 X70.781 Y45.661
N26780 X70.59 Y45.805
N26790 X69.517 Y46.568
N26800 X69.318 Y46.7
N26810 X68.996 Y46.902
N26820 X68.994 Y48.136
N26830 X68.98 Y48.456
N26840 X68.943 Y48.917
N26850 X68.863 Y49.448
N26860 X68.746 Y49.98
N26870 X68.742 Y50.
N26880 X80.
N26890 Z0 F2000.
N26900 G0 Y57.01
N26910 Z-1.
N26920 G1 Z-11. F125.
N26930 Y50.
N26940 Y38.41 F1300.
N26950 X79.993 Y38.413
N26960 G3 X79.453 Y38.609 I-1.631 J-3.652
N26970 G1 X78.92 Y38.76
N26980 X78.395 Y38.871
N26990 X77.864 Y38.947
N27000 X77.466 Y38.984
N27010 X77.168 Y38.996
N27020 X77.003 Y39.
N27030 X76.907 Y39.001
N27040 X76.17 Y40.091
N27050 X76.03 Y40.286
N27060 X75.23 Y41.33
N27070 X75.078 Y41.516
N27080 X74.217 Y42.511
N27090 X74.055 Y42.687
N27100 X73.135 Y43.629
N27110 X72.963 Y43.795
N27120 X71.989 Y44.68
N27130 X71.807 Y44.836
N27140 X70.781 Y45.661
N27150 X70.59 Y45.805
N27160 X69.517 Y46.568
N27170 X69.318 Y46.7
N27180 X68.996 Y46.902
N27190 X68.994 Y48.136
N27200 X68.98 Y48.456
N27210 X68.943 Y48.917
N27220 X68.863 Y49.448
N27230 X68.746 Y49.98
N27240 X68.742 Y50.
N27250 X80.
N27260 Z-1. F2000.
N27270 G0 Z7.
N27280 X87.01 Y-.003
N27290 G1 Z-3. F125.
N27300 X80. Y0
N27310 X68.747 Y.005 F1300.
N27320 X68.803 Y.258
N27330 X68.903 Y.786
N27340 X68.965 Y1.289
N27350 X68.993 Y1.768
N27360 X69. Y2.005
N27370 Y3.097
N27380 X69.126 Y3.174
N27390 X69.327 Y3.305
N27400 X70.406 Y4.058
N27410 X70.599 Y4.201
N27420 X71.631 Y5.017
N27430 X71.814 Y5.171
N27440 X72.797 Y6.047
N27450 X72.97 Y6.212
N27460 X73.898 Y7.146
N27470 X74.062 Y7.32
N27480 X74.932 Y8.308
N27490 X75.085 Y8.492
N27500 X75.895 Y9.53
N27510 X76.036 Y9.723
N27520 X76.782 Y10.807
N27530 X76.907 Y11.
N27540 X76.996
N27550 X77.224 Y11.007
N27560 X77.679 Y11.033
N27570 X78.164 Y11.09
N27580 X78.691 Y11.186
N27590 X79.199 Y11.313
N27600 X79.697 Y11.473
N27610 X80. Y11.584
N27620 Y0
N27630 Z7. F2000.
N27640 G0 X87.01 Y-.003
N27650 Z6.
N27660 G1 Z-4. F125.
N27670 X80. Y0
N27680 X68.747 Y.005 F1300.
N27690 X68.803 Y.258
N27700 X68.903 Y.786
N27710 X68.965 Y1.289
N27720 X68.993 Y1.768
N27730 X69. Y2.005
N27740 Y3.097
N27750 X69.126 Y3.174
N27760 X69.327 Y3.305
N27770 X70.406 Y4.058
N27780 X70.599 Y4.201
N27790 X71.631 Y5.017
N27800 X71.814 Y5.171
N27810 X72.797 Y6.047
N27820 X72.97 Y6.212
N27830 X73.898 Y7.146
N27840 X74.062 Y7.32
N27850 X74.932 Y8.308
N27860 X75.085 Y8.492
N27870 X75.895 Y9.53
N27880 X76.036 Y9.723
N27890 X76.782 Y10.807
N27900 X76.907 Y11.
N27910 X76.996
N27920 X77.224 Y11.007
N27930 X77.679 Y11.033
N27940 X78.164 Y11.09
N27950 X78.691 Y11.186
N27960 X79.199 Y11.313
N27970 X79.697 Y11.473
N27980 X80. Y11.584
N27990 Y0
N28000 Z6. F2000.
N28010 G0 X87.01 Y-.003
N28020 Z5.
N28030 G1 Z-5. F125.
N28040 X80. Y0
N28050 X68.747 Y.005 F1300.
N28060 X68.803 Y.258
N28070 X68.903 Y.786
N28080 X68.965 Y1.289
N28090 X68.993 Y1.768
N28100 X69. Y2.005
N28110 Y3.097
N28120 X69.126 Y3.174
N28130 X69.327 Y3.305
N28140 X70.406 Y4.058
N28150 X70.599 Y4.201
N28160 X71.631 Y5.017
N28170 X71.814 Y5.171
N28180 X72.797 Y6.047
N28190 X72.97 Y6.212
N28200 X73.898 Y7.146
N28210 X74.062 Y7.32
N28220 X74.932 Y8.308
N28230 X75.085 Y8.492
N28240 X75.895 Y9.53
N28250 X76.036 Y9.723
N28260 X76.782 Y10.807
N28270 X76.907 Y11.
N28280 X76.996
N28290 X77.224 Y11.007
N28300 X77.679 Y11.033
N28310 X78.164 Y11.09
N28320 X78.691 Y11.186
N28330 X79.199 Y11.313
N28340 X79.697 Y11.473
N28350 X80. Y11.584
N28360 Y0
N28370 Z5. F2000.
N28380 G0 X87.01 Y-.003
N28390 Z4.
N28400 G1 Z-6. F125.
N28410 X80. Y0
N28420 X68.747 Y.005 F1300.
N28430 X68.803 Y.258
N28440 X68.903 Y.786
N28450 X68.965 Y1.289
N28460 X68.993 Y1.768
N28470 X69. Y2.005
N28480 Y3.097
N28490 X69.126 Y3.174
N28500 X69.327 Y3.305
N28510 X70.406 Y4.058
N28520 X70.599 Y4.201
N28530 X71.631 Y5.017
N28540 X71.814 Y5.171
N28550 X72.797 Y6.047
N28560 X72.97 Y6.212
N28570 X73.898 Y7.146
N28580 X74.062 Y7.32
N28590 X74.932 Y8.308
N28600 X75.085 Y8.492
N28610 X75.895 Y9.53
N28620 X76.036 Y9.723
N28630 X76.782 Y10.807
N28640 X76.907 Y11.
N28650 X76.996
N28660 X77.224 Y11.007
N28670 X77.679 Y11.033
N28680 X78.164 Y11.09
N28690 X78.691 Y11.186
N28700 X79.199 Y11.313
N28710 X79.697 Y11.473
N28720 X80. Y11.584
N28730 Y0
N28740 Z4. F2000.
N28750 G0 X87.01 Y-.003
N28760 Z3.
N28770 G1 Z-7. F125.
N28780 X80. Y0
N28790 X68.747 Y.005 F1300.
N28800 X68.803 Y.258
N28810 X68.903 Y.786
N28820 X68.965 Y1.289
N28830 X68.993 Y1.768
N28840 X69. Y2.005
N28850 Y3.097
N28860 X69.126 Y3.174
N28870 X69.327 Y3.305
N28880 X70.406 Y4.058
N28890 X70.599 Y4.201
N28900 X71.631 Y5.017
N28910 X71.814 Y5.171
N28920 X72.797 Y6.047
N28930 X72.97 Y6.212
N28940 X73.898 Y7.146
N28950 X74.062 Y7.32
N28960 X74.932 Y8.308
N28970 X75.085 Y8.492
N28980 X75.895 Y9.53
N28990 X76.036 Y9.723
N29000 X76.782 Y10.807
N29010 X76.907 Y11.
N29020 X76.996
N29030 X77.224 Y11.007
N29040 X77.679 Y11.033
N29050 X78.164 Y11.09
N29060 X78.691 Y11.186
N29070 X79.199 Y11.313
N29080 X79.697 Y11.473
N29090 X80. Y11.584
N29100 Y0
N29110 Z3. F2000.
N29120 G0 X87.01 Y-.003
N29130 Z2.
N29140 G1 Z-8. F125.
N29150 X80. Y0
N29160 X68.747 Y.005 F1300.
N29170 X68.803 Y.258
N29180 X68.903 Y.786
N29190 X68.965 Y1.289
N29200 X68.993 Y1.768
N29210 X69. Y2.005
N29220 Y3.097
N29230 X69.126 Y3.174
N29240 X69.327 Y3.305
N29250 X70.406 Y4.058
N29260 X70.599 Y4.201
N29270 X71.631 Y5.017
N29280 X71.814 Y5.171
N29290 X72.797 Y6.047
N29300 X72.97 Y6.212
N29310 X73.898 Y7.146
N29320 X74.062 Y7.32
N29330 X74.932 Y8.308
N29340 X75.085 Y8.492
N29350 X75.895 Y9.53
N29360 X76.036 Y9.723
N29370 X76.782 Y10.807
N29380 X76.907 Y11.
N29390 X76.996
N29400 X77.224 Y11.007
N29410 X77.679 Y11.033
N29420 X78.164 Y11.09
N29430 X78.691 Y11.186
N29440 X79.199 Y11.313
N29450 X79.697 Y11.473
N29460 X80. Y11.584
N29470 Y0
N29480 Z2. F2000.
N29490 G0 X87.01 Y-.003
N29500 Z1.
N29510 G1 Z-9. F125.
N29520 X80. Y0
N29530 X68.747 Y.005 F1300.
N29540 X68.803 Y.258
N29550 X68.903 Y.786
N29560 X68.965 Y1.289
N29570 X68.993 Y1.768
N29580 X69. Y2.005
N29590 Y3.097
N29600 X69.126 Y3.174
N29610 X69.327 Y3.305
N29620 X70.406 Y4.058
N29630 X70.599 Y4.201
N29640 X71.631 Y5.017
N29650 X71.814 Y5.171
N29660 X72.797 Y6.047
N29670 X72.97 Y6.212
N29680 X73.898 Y7.146
N29690 X74.062 Y7.32
N29700 X74.932 Y8.308
N29710 X75.085 Y8.492
N29720 X75.895 Y9.53
N29730 X76.036 Y9.723
N29740 X76.782 Y10.807
N29750 X76.907 Y11.
N29760 X76.996
N29770 X77.224 Y11.007
N29780 X77.679 Y11.033
N29790 X78.164 Y11.09
N29800 X78.691 Y11.186
N29810 X79.199 Y11.313
N29820 X79.697 Y11.473
N29830 X80. Y11.584
N29840 Y0
N29850 Z1. F2000.
N29860 G0 X87.01 Y-.003
N29870 Z0
N29880 G1 Z-10. F125.
N29890 X80. Y0
N29900 X68.747 Y.005 F1300.
N29910 X68.803 Y.258
N29920 X68.903 Y.786
N29930 X68.965 Y1.289
N29940 X68.993 Y1.768
N29950 X69. Y2.005
N29960 Y3.097
N29970 X69.126 Y3.174
N29980 X69.327 Y3.305
N29990 X70.406 Y4.058
N30000 X70.599 Y4.201
N30010 X71.631 Y5.017
N30020 X71.814 Y5.171
N30030 X72.797 Y6.047
N30040 X72.97 Y6.212
N30050 X73.898 Y7.146
N30060 X74.062 Y7.32
N30070 X74.932 Y8.308
N30080 X75.085 Y8.492
N30090 X75.895 Y9.53
N30100 X76.036 Y9.723
N30110 X76.782 Y10.807
N30120 X76.907 Y11.
N30130 X76.996
N30140 X77.224 Y11.007
N30150 X77.679 Y11.033
N30160 X78.164 Y11.09
N30170 X78.691 Y11.186
N30180 X79.199 Y11.313
N30190 X79.697 Y11.473
N30200 X80. Y11.584
N30210 Y0
N30220 Z0 F2000.
N30230 G0 X87.01 Y-.003
N30240 Z-1.
N30250 G1 Z-11. F125.
N30260 X80. Y0
N30270 X68.747 Y.005 F1300.
N30280 X68.803 Y.258
N30290 X68.903 Y.786
N30300 X68.965 Y1.289
N30310 X68.993 Y1.768
N30320 X69. Y2.005
N30330 Y3.097
N30340 X69.126 Y3.174
N30350 X69.327 Y3.305
N30360 X70.406 Y4.058
N30370 X70.599 Y4.201
N30380 X71.631 Y5.017
N30390 X71.814 Y5.171
N30400 X72.797 Y6.047
N30410 X72.97 Y6.212
N30420 X73.898 Y7.146
N30430 X74.062 Y7.32
N30440 X74.932 Y8.308
N30450 X75.085 Y8.492
N30460 X75.895 Y9.53
N30470 X76.036 Y9.723
N30480 X76.782 Y10.807
N30490 X76.907 Y11.
N30500 X76.996
N30510 X77.224 Y11.007
N30520 X77.679 Y11.033
N30530 X78.164 Y11.09
N30540 X78.691 Y11.186
N30550 X79.199 Y11.313
N30560 X79.697 Y11.473
N30570 X80. Y11.584
N30580 Y0
N30590 Z-1. F2000.
N30600 G0 Z8.01
N30610 X12.063 Y25.573
N30620 G1 Z-1.99 F125.
N30630 X12.032 Y25.44 Z-2.027
N30640 X12. Y24.958 Z-2.156
N30650 X12.046 Y24.477 Z-2.285
N30660 X12.168 Y24.01 Z-2.415
N30670 X12.363 Y23.569 Z-2.544
N30680 X12.627 Y23.164 Z-2.673
N30690 X12.952 Y22.808 Z-2.803
N30700 X13.331 Y22.507 Z-2.932
N30710 X13.553 Y22.386 Z-3.
N30720 X13.775 Y22.264 F1300.
N30730 X14.206 Y22.107
N30740 X14.68 Y22.017
N30750 X15.163 Y22.004
N30760 X15.641 Y22.069
N30770 X16.103 Y22.21
N30780 X16.536 Y22.423
N30790 X16.93 Y22.703
N30800 X17.273 Y23.042
N30810 X17.558 Y23.432
N30820 X17.776 Y23.863
N30830 X17.923 Y24.323
N30840 X17.993 Y24.801
N30850 X17.987 Y25.283
N30860 X17.902 Y25.759
N30870 X17.743 Y26.214
N30880 X17.513 Y26.639
N30890 X17.217 Y27.021
N30900 X16.865 Y27.35
N30910 X16.463 Y27.619
N30920 X16.024 Y27.82
N30930 X15.559 Y27.947
N30940 X15.079 Y27.999
N30950 X14.597 Y27.973
N30960 X14.125 Y27.87
N30970 X13.676 Y27.692
N30980 X13.261 Y27.445
N30990 X12.892 Y27.134
N31000 X12.577 Y26.768
N31010 X12.324 Y26.357
N31020 X12.141 Y25.91
N31030 X12.032 Y25.44
N31040 X12. Y24.958
N31050 X12.046 Y24.477
N31060 X12.168 Y24.01
N31070 X12.363 Y23.569
N31080 X12.627 Y23.164
N31090 X12.952 Y22.808
N31100 X13.331 Y22.507
N31110 X13.553 Y22.386
N31120 X13.842 Y22.263 Z-2.916
N31130 X14.149 Y22.199 Z-2.832
N31140 X14.462 Y22.196 Z-2.747
N31150 X14.771 Y22.255 Z-2.663
N31160 X15.061 Y22.372 Z-2.579
N31170 X15.324 Y22.544 Z-2.495
N31180 X15.548 Y22.764 Z-2.411
N31190 X15.724 Y23.023 Z-2.327
N31200 Z7.673 F2000.
N31210 G0 X12.073 Y25.57
N31220 Z7.01
N31230 G1 Z-2.99 F125.
N31240 X12.063 Y25.573
N31250 X12.032 Y25.44 Z-3.027
N31260 X12. Y24.958 Z-3.156
N31270 X12.046 Y24.477 Z-3.285
N31280 X12.168 Y24.01 Z-3.415
N31290 X12.363 Y23.569 Z-3.544
N31300 X12.627 Y23.164 Z-3.673
N31310 X12.952 Y22.808 Z-3.803
N31320 X13.331 Y22.507 Z-3.932
N31330 X13.553 Y22.386 Z-4.
N31340 X13.775 Y22.264 F1300.
N31350 X14.206 Y22.107
N31360 X14.68 Y22.017
N31370 X15.163 Y22.004
N31380 X15.641 Y22.069
N31390 X16.103 Y22.21
N31400 X16.536 Y22.423
N31410 X16.93 Y22.703
N31420 X17.273 Y23.042
N31430 X17.558 Y23.432
N31440 X17.776 Y23.863
N31450 X17.923 Y24.323
N31460 X17.993 Y24.801
N31470 X17.987 Y25.283
N31480 X17.902 Y25.759
N31490 X17.743 Y26.214
N31500 X17.513 Y26.639
N31510 X17.217 Y27.021
N31520 X16.865 Y27.35
N31530 X16.463 Y27.619
N31540 X16.024 Y27.82
N31550 X15.559 Y27.947
N31560 X15.079 Y27.999
N31570 X14.597 Y27.973
N31580 X14.125 Y27.87
N31590 X13.676 Y27.692
N31600 X13.261 Y27.445
N31610 X12.892 Y27.134
N31620 X12.577 Y26.768
N31630 X12.324 Y26.357
N31640 X12.141 Y25.91
N31650 X12.032 Y25.44
N31660 X12. Y24.958
N31670 X12.046 Y24.477
N31680 X12.168 Y24.01
N31690 X12.363 Y23.569
N31700 X12.627 Y23.164
N31710 X12.952 Y22.808
N31720 X13.331 Y22.507
N31730 X13.553 Y22.386
N31740 X13.842 Y22.263 Z-3.916
N31750 X14.149 Y22.199 Z-3.832
N31760 X14.462 Y22.196 Z-3.747
N31770 X14.771 Y22.255 Z-3.663
N31780 X15.061 Y22.372 Z-3.579
N31790 X15.324 Y22.544 Z-3.495
N31800 X15.548 Y22.764 Z-3.411
N31810 X15.724 Y23.023 Z-3.327
N31820 Z6.673 F2000.
N31830 G0 X12.073 Y25.57
N31840 Z6.01
N31850 G1 Z-3.99 F125.
N31860 X12.063 Y25.573
N31870 X12.032 Y25.44 Z-4.027
N31880 X12. Y24.958 Z-4.156
N31890 X12.046 Y24.477 Z-4.285
N31900 X12.168 Y24.01 Z-4.415
N31910 X12.363 Y23.569 Z-4.544
N31920 X12.627 Y23.164 Z-4.673
N31930 X12.952 Y22.808 Z-4.803
N31940 X13.331 Y22.507 Z-4.932
N31950 X13.553 Y22.386 Z-5.
N31960 X13.775 Y22.264 F1300.
N31970 X14.206 Y22.107
N31980 X14.68 Y22.017
N31990 X15.163 Y22.004
N32000 X15.641 Y22.069
N32010 X16.103 Y22.21
N32020 X16.536 Y22.423
N32030 X16.93 Y22.703
N32040 X17.273 Y23.042
N32050 X17.558 Y23.432
N32060 X17.776 Y23.863
N32070 X17.923 Y24.323
N32080 X17.993 Y24.801
N32090 X17.987 Y25.283
N32100 X17.902 Y25.759
N32110 X17.743 Y26.214
N32120 X17.513 Y26.639
N32130 X17.217 Y27.021
N32140 X16.865 Y27.35
N32150 X16.463 Y27.619
N32160 X16.024 Y27.82
N32170 X15.559 Y27.947
N32180 X15.079 Y27.999
N32190 X14.597 Y27.973
N32200 X14.125 Y27.87
N32210 X13.676 Y27.692
N32220 X13.261 Y27.445
N32230 X12.892 Y27.134
N32240 X12.577 Y26.768
N32250 X12.324 Y26.357
N32260 X12.141 Y25.91
N32270 X12.032 Y25.44
N32280 X12. Y24.958
N32290 X12.046 Y24.477
N32300 X12.168 Y24.01
N32310 X12.363 Y23.569
N32320 X12.627 Y23.164
N32330 X12.952 Y22.808
N32340 X13.331 Y22.507
N32350 X13.553 Y22.386
N32360 X13.842 Y22.263 Z-4.916
N32370 X14.149 Y22.199 Z-4.832
N32380 X14.462 Y22.196 Z-4.747
N32390 X14.771 Y22.255 Z-4.663
N32400 X15.061 Y22.372 Z-4.579
N32410 X15.324 Y22.544 Z-4.495
N32420 X15.548 Y22.764 Z-4.411
N32430 X15.724 Y23.023 Z-4.327
N32440 Z5.673 F2000.
N32450 G0 X12.073 Y25.57
N32460 Z5.01
N32470 G1 Z-4.99 F125.
N32480 X12.063 Y25.573
N32490 X12.032 Y25.44 Z-5.027
N32500 X12. Y24.958 Z-5.156
N32510 X12.046 Y24.477 Z-5.285
N32520 X12.168 Y24.01 Z-5.415
N32530 X12.363 Y23.569 Z-5.544
N32540 X12.627 Y23.164 Z-5.673
N32550 X12.952 Y22.808 Z-5.803
N32560 X13.331 Y22.507 Z-5.932
N32570 X13.553 Y22.386 Z-6.
N32580 X13.775 Y22.264 F1300.
N32590 X14.206 Y22.107
N32600 X14.68 Y22.017
N32610 X15.163 Y22.004
N32620 X15.641 Y22.069
N32630 X16.103 Y22.21
N32640 X16.536 Y22.423
N32650 X16.93 Y22.703
N32660 X17.273 Y23.042
N32670 X17.558 Y23.432
N32680 X17.776 Y23.863
N32690 X17.923 Y24.323
N32700 X17.993 Y24.801
N32710 X17.987 Y25.283
N32720 X17.902 Y25.759
N32730 X17.743 Y26.214
N32740 X17.513 Y26.639
N32750 X17.217 Y27.021
N32760 X16.865 Y27.35
N32770 X16.463 Y27.619
N32780 X16.024 Y27.82
N32790 X15.559 Y27.947
N32800 X15.079 Y27.999
N32810 X14.597 Y27.973
N32820 X14.125 Y27.87
N32830 X13.676 Y27.692
N32840 X13.261 Y27.445
N32850 X12.892 Y27.134
N32860 X12.577 Y26.768
N32870 X12.324 Y26.357
N32880 X12.141 Y25.91
N32890 X12.032 Y25.44
N32900 X12. Y24.958
N32910 X12.046 Y24.477
N32920 X12.168 Y24.01
N32930 X12.363 Y23.569
N32940 X12.627 Y23.164
N32950 X12.952 Y22.808
N32960 X13.331 Y22.507
N32970 X13.553 Y22.386
N32980 X13.842 Y22.263 Z-5.916
N32990 X14.149 Y22.199 Z-5.832
N33000 X14.462 Y22.196 Z-5.747
N33010 X14.771 Y22.255 Z-5.663
N33020 X15.061 Y22.372 Z-5.579
N33030 X15.324 Y22.544 Z-5.495
N33040 X15.548 Y22.764 Z-5.411
N33050 X15.724 Y23.023 Z-5.327
N33060 Z4.673 F2000.
N33070 G0 X12.073 Y25.57
N33080 Z4.01
N33090 G1 Z-5.99 F125.
N33100 X12.063 Y25.573
N33110 X12.032 Y25.44 Z-6.027
N33120 X12. Y24.958 Z-6.156
N33130 X12.046 Y24.477 Z-6.285
N33140 X12.168 Y24.01 Z-6.415
N33150 X12.363 Y23.569 Z-6.544
N33160 X12.627 Y23.164 Z-6.673
N33170 X12.952 Y22.808 Z-6.803
N33180 X13.331 Y22.507 Z-6.932
N33190 X13.553 Y22.386 Z-7.
N33200 X13.775 Y22.264 F1300.
N33210 X14.206 Y22.107
N33220 X14.68 Y22.017
N33230 X15.163 Y22.004
N33240 X15.641 Y22.069
N33250 X16.103 Y22.21
N33260 X16.536 Y22.423
N33270 X16.93 Y22.703
N33280 X17.273 Y23.042
N33290 X17.558 Y23.432
N33300 X17.776 Y23.863
N33310 X17.923 Y24.323
N33320 X17.993 Y24.801
N33330 X17.987 Y25.283
N33340 X17.902 Y25.759
N33350 X17.743 Y26.214
N33360 X17.513 Y26.639
N33370 X17.217 Y27.021
N33380 X16.865 Y27.35
N33390 X16.463 Y27.619
N33400 X16.024 Y27.82
N33410 X15.559 Y27.947
N33420 X15.079 Y27.999
N33430 X14.597 Y27.973
N33440 X14.125 Y27.87
N33450 X13.676 Y27.692
N33460 X13.261 Y27.445
N33470 X12.892 Y27.134
N33480 X12.577 Y26.768
N33490 X12.324 Y26.357
N33500 X12.141 Y25.91
N33510 X12.032 Y25.44
N33520 X12. Y24.958
N33530 X12.046 Y24.477
N33540 X12.168 Y24.01
N33550 X12.363 Y23.569
N33560 X12.627 Y23.164
N33570 X12.952 Y22.808
N33580 X13.331 Y22.507
N33590 X13.553 Y22.386
N33600 X13.842 Y22.263 Z-6.916
N33610 X14.149 Y22.199 Z-6.832
N33620 X14.462 Y22.196 Z-6.747
N33630 X14.771 Y22.255 Z-6.663
N33640 X15.061 Y22.372 Z-6.579
N33650 X15.324 Y22.544 Z-6.495
N33660 X15.548 Y22.764 Z-6.411
N33670 X15.724 Y23.023 Z-6.327
N33680 Z3.673 F2000.
N33690 G0 X12.073 Y25.57
N33700 Z3.01
N33710 G1 Z-6.99 F125.
N33720 X12.063 Y25.573
N33730 X12.032 Y25.44 Z-7.027
N33740 X12. Y24.958 Z-7.156
N33750 X12.046 Y24.477 Z-7.285
N33760 X12.168 Y24.01 Z-7.415
N33770 X12.363 Y23.569 Z-7.544
N33780 X12.627 Y23.164 Z-7.673
N33790 X12.952 Y22.808 Z-7.803
N33800 X13.331 Y22.507 Z-7.932
N33810 X13.553 Y22.386 Z-8.
N33820 X13.775 Y22.264 F1300.
N33830 X14.206 Y22.107
N33840 X14.68 Y22.017
N33850 X15.163 Y22.004
N33860 X15.641 Y22.069
N33870 X16.103 Y22.21
N33880 X16.536 Y22.423
N33890 X16.93 Y22.703
N33900 X17.273 Y23.042
N33910 X17.558 Y23.432
N33920 X17.776 Y23.863
N33930 X17.923 Y24.323
N33940 X17.993 Y24.801
N33950 X17.987 Y25.283
N33960 X17.902 Y25.759
N33970 X17.743 Y26.214
N33980 X17.513 Y26.639
N33990 X17.217 Y27.021
N34000 X16.865 Y27.35
N34010 X16.463 Y27.619
N34020 X16.024 Y27.82
N34030 X15.559 Y27.947
N34040 X15.079 Y27.999
N34050 X14.597 Y27.973
N34060 X14.125 Y27.87
N34070 X13.676 Y27.692
N34080 X13.261 Y27.445
N34090 X12.892 Y27.134
N34100 X12.577 Y26.768
N34110 X12.324 Y26.357
N34120 X12.141 Y25.91
N34130 X12.032 Y25.44
N34140 X12. Y24.958
N34150 X12.046 Y24.477
N34160 X12.168 Y24.01
N34170 X12.363 Y23.569
N34180 X12.627 Y23.164
N34190 X12.952 Y22.808
N34200 X13.331 Y22.507
N34210 X13.553 Y22.386
N34220 X13.842 Y22.263 Z-7.916
N34230 X14.149 Y22.199 Z-7.832
N34240 X14.462 Y22.196 Z-7.747
N34250 X14.771 Y22.255 Z-7.663
N34260 X15.061 Y22.372 Z-7.579
N34270 X15.324 Y22.544 Z-7.495
N34280 X15.548 Y22.764 Z-7.411
N34290 X15.724 Y23.023 Z-7.327
N34300 Z2.673 F2000.
N34310 G0 X12.073 Y25.57
N34320 Z2.01
N34330 G1 Z-7.99 F125.
N34340 X12.063 Y25.573
N34350 X12.032 Y25.44 Z-8.027
N34360 X12. Y24.958 Z-8.156
N34370 X12.046 Y24.477 Z-8.285
N34380 X12.168 Y24.01 Z-8.415
N34390 X12.363 Y23.569 Z-8.544
N34400 X12.627 Y23.164 Z-8.673
N34410 X12.952 Y22.808 Z-8.803
N34420 X13.331 Y22.507 Z-8.932
N34430 X13.553 Y22.386 Z-9.
N34440 X13.775 Y22.264 F1300.
N34450 X14.206 Y22.107
N34460 X14.68 Y22.017
N34470 X15.163 Y22.004
N34480 X15.641 Y22.069
N34490 X16.103 Y22.21
N34500 X16.536 Y22.423
N34510 X16.93 Y22.703
N34520 X17.273 Y23.042
N34530 X17.558 Y23.432
N34540 X17.776 Y23.863
N34550 X17.923 Y24.323
N34560 X17.993 Y24.801
N34570 X17.987 Y25.283
N34580 X17.902 Y25.759
N34590 X17.743 Y26.214
N34600 X17.513 Y26.639
N34610 X17.217 Y27.021
N34620 X16.865 Y27.35
N34630 X16.463 Y27.619
N34640 X16.024 Y27.82
N34650 X15.559 Y27.947
N34660 X15.079 Y27.999
N34670 X14.597 Y27.973
N34680 X14.125 Y27.87
N34690 X13.676 Y27.692
N34700 X13.261 Y27.445
N34710 X12.892 Y27.134
N34720 X12.577 Y26.768
N34730 X12.324 Y26.357
N34740 X12.141 Y25.91
N34750 X12.032 Y25.44
N34760 X12. Y24.958
N34770 X12.046 Y24.477
N34780 X12.168 Y24.01
N34790 X12.363 Y23.569
N34800 X12.627 Y23.164
N34810 X12.952 Y22.808
N34820 X13.331 Y22.507
N34830 X13.553 Y22.386
N34840 X13.842 Y22.263 Z-8.916
N34850 X14.149 Y22.199 Z-8.832
N34860 X14.462 Y22.196 Z-8.747
N34870 X14.771 Y22.255 Z-8.663
N34880 X15.061 Y22.372 Z-8.579
N34890 X15.324 Y22.544 Z-8.495
N34900 X15.548 Y22.764 Z-8.411
N34910 X15.724 Y23.023 Z-8.327
N34920 Z1.673 F2000.
N34930 G0 X12.073 Y25.57
N34940 Z1.01
N34950 G1 Z-8.99 F125.
N34960 X12.063 Y25.573
N34970 X12.032 Y25.44 Z-9.027
N34980 X12. Y24.958 Z-9.156
N34990 X12.046 Y24.477 Z-9.285
N35000 X12.168 Y24.01 Z-9.415
N35010 X12.363 Y23.569 Z-9.544
N35020 X12.627 Y23.164 Z-9.673
N35030 X12.952 Y22.808 Z-9.803
N35040 X13.331 Y22.507 Z-9.932
N35050 X13.553 Y22.386 Z-10.
N35060 X13.775 Y22.264 F1300.
N35070 X14.206 Y22.107
N35080 X14.68 Y22.017
N35090 X15.163 Y22.004
N35100 X15.641 Y22.069
N35110 X16.103 Y22.21
N35120 X16.536 Y22.423
N35130 X16.93 Y22.703
N35140 X17.273 Y23.042
N35150 X17.558 Y23.432
N35160 X17.776 Y23.863
N35170 X17.923 Y24.323
N35180 X17.993 Y24.801
N35190 X17.987 Y25.283
N35200 X17.902 Y25.759
N35210 X17.743 Y26.214
N35220 X17.513 Y26.639
N35230 X17.217 Y27.021
N35240 X16.865 Y27.35
N35250 X16.463 Y27.619
N35260 X16.024 Y27.82
N35270 X15.559 Y27.947
N35280 X15.079 Y27.999
N35290 X14.597 Y27.973
N35300 X14.125 Y27.87
N35310 X13.676 Y27.692
N35320 X13.261 Y27.445
N35330 X12.892 Y27.134
N35340 X12.577 Y26.768
N35350 X12.324 Y26.357
N35360 X12.141 Y25.91
N35370 X12.032 Y25.44
N35380 X12. Y24.958
N35390 X12.046 Y24.477
N35400 X12.168 Y24.01
N35410 X12.363 Y23.569
N35420 X12.627 Y23.164
N35430 X12.952 Y22.808
N35440 X13.331 Y22.507
N35450 X13.553 Y22.386
N35460 X13.842 Y22.263 Z-9.916
N35470 X14.149 Y22.199 Z-9.832
N35480 X14.462 Y22.196 Z-9.747
N35490 X14.771 Y22.255 Z-9.663
N35500 X15.061 Y22.372 Z-9.579
N35510 X15.324 Y22.544 Z-9.495
N35520 X15.548 Y22.764 Z-9.411
N35530 X15.724 Y23.023 Z-9.327
N35540 Z.673 F2000.
N35550 G0 X12.073 Y25.57
N35560 Z.01
N35570 G1 Z-9.99 F125.
N35580 X12.063 Y25.573
N35590 X12.032 Y25.44 Z-10.027
N35600 X12. Y24.958 Z-10.156
N35610 X12.046 Y24.477 Z-10.285
N35620 X12.168 Y24.01 Z-10.415
N35630 X12.363 Y23.569 Z-10.544
N35640 X12.627 Y23.164 Z-10.673
N35650 X12.952 Y22.808 Z-10.803
N35660 X13.331 Y22.507 Z-10.932
N35670 X13.553 Y22.386 Z-11.
N35680 X13.775 Y22.264 F1300.
N35690 X14.206 Y22.107
N35700 X14.68 Y22.017
N35710 X15.163 Y22.004
N35720 X15.641 Y22.069
N35730 X16.103 Y22.21
N35740 X16.536 Y22.423
N35750 X16.93 Y22.703
N35760 X17.273 Y23.042
N35770 X17.558 Y23.432
N35780 X17.776 Y23.863
N35790 X17.923 Y24.323
N35800 X17.993 Y24.801
N35810 X17.987 Y25.283
N35820 X17.902 Y25.759
N35830 X17.743 Y26.214
N35840 X17.513 Y26.639
N35850 X17.217 Y27.021
N35860 X16.865 Y27.35
N35870 X16.463 Y27.619
N35880 X16.024 Y27.82
N35890 X15.559 Y27.947
N35900 X15.079 Y27.999
N35910 X14.597 Y27.973
N35920 X14.125 Y27.87
N35930 X13.676 Y27.692
N35940 X13.261 Y27.445
N35950 X12.892 Y27.134
N35960 X12.577 Y26.768
N35970 X12.324 Y26.357
N35980 X12.141 Y25.91
N35990 X12.032 Y25.44
N36000 X12. Y24.958
N36010 X12.046 Y24.477
N36020 X12.168 Y24.01
N36030 X12.363 Y23.569
N36040 X12.627 Y23.164
N36050 X12.952 Y22.808
N36060 X13.331 Y22.507
N36070 X13.553 Y22.386
N36080 X13.842 Y22.263 Z-10.916
N36090 X14.149 Y22.199 Z-10.832
N36100 X14.462 Y22.196 Z-10.747
N36110 X14.771 Y22.255 Z-10.663
N36120 X15.061 Y22.372 Z-10.579
N36130 X15.324 Y22.544 Z-10.495
N36140 X15.548 Y22.764 Z-10.411
N36150 X15.724 Y23.023 Z-10.327
N36160 Z-.327 F2000.
N36170 G0 Z7.
N36180 X5.643 Y-7.01
N36190 G1 Z-3. F125.
N36200 Y0
N36210 X0 F1300.
N36220 Y11.257
N36230 X.209 Y11.21
N36240 X.72 Y11.109
N36250 X1.224 Y11.043
N36260 X1.727 Y11.009
N36270 X1.995 Y11.
N36280 X2.155
N36290 X2.217 Y10.946
N36300 X3.038 Y10.241
N36310 X3.264 Y10.06
N36320 X4.134 Y9.416
N36330 X4.373 Y9.253
N36340 X5.287 Y8.673
N36350 X5.537 Y8.527
N36360 X6.491 Y8.014
N36370 X6.75 Y7.887
N36380 X7.739 Y7.445
N36390 X8.009 Y7.335
N36400 X9.048 Y6.959
N36410 X9.323 Y6.87
N36420 X10.344 Y6.581
N36430 X10.622 Y6.513
N36440 X11.682 Y6.294
N36450 X11.967 Y6.246
N36460 X13.041 Y6.103
N36470 X13.328 Y6.076
N36480 X14.409 Y6.011
N36490 X14.698 Y6.004
N36500 X15.781 Y6.018
N36510 X16.07 Y6.032
N36520 X17.149 Y6.124
N36530 X17.435 Y6.159
N36540 X18.505 Y6.328
N36550 X18.789 Y6.384
N36560 X19.843 Y6.63
N36570 X20.122 Y6.706
N36580 X21.156 Y7.027
N36590 X21.429 Y7.123
N36600 X22.437 Y7.518
N36610 X22.702 Y7.633
N36620 X23.679 Y8.1
N36630 X23.935 Y8.234
N36640 X24.759 Y8.704
N36650 X38.774 Y4.685
N36660 X38.794 Y4.67
N36670 X39.844 Y3.876
N36680 X40.039 Y3.738
N36690 X41. Y3.097
N36700 Y1.993
N36710 X41.005 Y1.805
N36720 X41.022 Y1.437
N36730 X41.07 Y.983
N36740 X41.156 Y.452
N36750 X41.257 Y0
N36760 X24.375
N36770 Y2.
N36780 Y4.
N36790 X24.427 Y4.025
N36800 X25.23 Y4.408
N36810 X26.653 Y4.
N36820 X24.375
N36830 Y0
N36840 X5.643
N36850 Y2.
N36860 Y4.
N36870 X4.
N36880 Y4.812
N36890 X4.598 Y4.49
N36900 X5.116 Y4.236
N36910 X5.643 Y4.
N36920 Z7. F2000.
N36930 G0 Y-7.01
N36940 Z6.
N36950 G1 Z-4. F125.
N36960 Y0
N36970 X0 F1300.
N36980 Y11.257
N36990 X.209 Y11.21
N37000 X.72 Y11.109
N37010 X1.224 Y11.043
N37020 X1.727 Y11.009
N37030 X1.995 Y11.
N37040 X2.155
N37050 X2.217 Y10.946
N37060 X3.038 Y10.241
N37070 X3.264 Y10.06
N37080 X4.134 Y9.416
N37090 X4.373 Y9.253
N37100 X5.287 Y8.673
N37110 X5.537 Y8.527
N37120 X6.491 Y8.014
N37130 X6.75 Y7.887
N37140 X7.739 Y7.445
N37150 X8.009 Y7.335
N37160 X9.048 Y6.959
N37170 X9.323 Y6.87
N37180 X10.344 Y6.581
N37190 X10.622 Y6.513
N37200 X11.682 Y6.294
N37210 X11.967 Y6.246
N37220 X13.041 Y6.103
N37230 X13.328 Y6.076
N37240 X14.409 Y6.011
N37250 X14.698 Y6.004
N37260 X15.781 Y6.018
N37270 X16.07 Y6.032
N37280 X17.149 Y6.124
N37290 X17.435 Y6.159
N37300 X18.505 Y6.328
N37310 X18.789 Y6.384
N37320 X19.843 Y6.63
N37330 X20.122 Y6.706
N37340 X21.156 Y7.027
N37350 X21.429 Y7.123
N37360 X22.437 Y7.518
N37370 X22.702 Y7.633
N37380 X23.679 Y8.1
N37390 X23.935 Y8.234
N37400 X24.759 Y8.704
N37410 X38.774 Y4.685
N37420 X38.794 Y4.67
N37430 X39.844 Y3.876
N37440 X40.039 Y3.738
N37450 X41. Y3.097
N37460 Y1.993
N37470 X41.005 Y1.805
N37480 X41.022 Y1.437
N37490 X41.07 Y.983
N37500 X41.156 Y.452
N37510 X41.257 Y0
N37520 X24.375
N37530 Y2.
N37540 Y4.
N37550 X24.427 Y4.025
N37560 X25.23 Y4.408
N37570 X26.653 Y4.
N37580 X24.375
N37590 Y0
N37600 X5.643
N37610 Y2.
N37620 Y4.
N37630 X4.
N37640 Y4.812
N37650 X4.598 Y4.49
N37660 X5.116 Y4.236
N37670 X5.643 Y4.
N37680 Z6. F2000.
N37690 G0 Y-7.01
N37700 Z5.
N37710 G1 Z-5. F125.
N37720 Y0
N37730 X0 F1300.
N37740 Y11.257
N37750 X.209 Y11.21
N37760 X.72 Y11.109
N37770 X1.224 Y11.043
N37780 X1.727 Y11.009
N37790 X1.995 Y11.
N37800 X2.155
N37810 X2.217 Y10.946
N37820 X3.038 Y10.241
N37830 X3.264 Y10.06
N37840 X4.134 Y9.416
N37850 X4.373 Y9.253
N37860 X5.287 Y8.673
N37870 X5.537 Y8.527
N37880 X6.491 Y8.014
N37890 X6.75 Y7.887
N37900 X7.739 Y7.445
N37910 X8.009 Y7.335
N37920 X9.048 Y6.959
N37930 X9.323 Y6.87
N37940 X10.344 Y6.581
N37950 X10.622 Y6.513
N37960 X11.682 Y6.294
N37970 X11.967 Y6.246
N37980 X13.041 Y6.103
N37990 X13.328 Y6.076
N38000 X14.409 Y6.011
N38010 X14.698 Y6.004
N38020 X15.781 Y6.018
N38030 X16.07 Y6.032
N38040 X17.149 Y6.124
N38050 X17.435 Y6.159
N38060 X18.505 Y6.328
N38070 X18.789 Y6.384
N38080 X19.843 Y6.63
N38090 X20.122 Y6.706
N38100 X21.156 Y7.027
N38110 X21.429 Y7.123
N38120 X22.437 Y7.518
N38130 X22.702 Y7.633
N38140 X23.679 Y8.1
N38150 X23.935 Y8.234
N38160 X24.759 Y8.704
N38170 X38.774 Y4.685
N38180 X38.794 Y4.67
N38190 X39.844 Y3.876
N38200 X40.039 Y3.738
N38210 X41. Y3.097
N38220 Y1.993
N38230 X41.005 Y1.805
N38240 X41.022 Y1.437
N38250 X41.07 Y.983
N38260 X41.156 Y.452
N38270 X41.257 Y0
N38280 X24.375
N38290 Y2.
N38300 Y4.
N38310 X24.427 Y4.025
N38320 X25.23 Y4.408
N38330 X26.653 Y4.
N38340 X24.375
N38350 Y0
N38360 X5.643
N38370 Y2.
N38380 Y4.
N38390 X4.
N38400 Y4.812
N38410 X4.598 Y4.49
N38420 X5.116 Y4.236
N38430 X5.643 Y4.
N38440 Z5. F2000.
N38450 G0 Y-7.01
N38460 Z4.
N38470 G1 Z-6. F125.
N38480 Y0
N38490 X0 F1300.
N38500 Y11.257
N38510 X.209 Y11.21
N38520 X.72 Y11.109
N38530 X1.224 Y11.043
N38540 X1.727 Y11.009
N38550 X1.995 Y11.
N38560 X2.155
N38570 X2.217 Y10.946
N38580 X3.038 Y10.241
N38590 X3.264 Y10.06
N38600 X4.134 Y9.416
N38610 X4.373 Y9.253
N38620 X5.287 Y8.673
N38630 X5.537 Y8.527
N38640 X6.491 Y8.014
N38650 X6.75 Y7.887
N38660 X7.739 Y7.445
N38670 X8.009 Y7.335
N38680 X9.048 Y6.959
N38690 X9.323 Y6.87
N38700 X10.344 Y6.581
N38710 X10.622 Y6.513
N38720 X11.682 Y6.294
N38730 X11.967 Y6.246
N38740 X13.041 Y6.103
N38750 X13.328 Y6.076
N38760 X14.409 Y6.011
N38770 X14.698 Y6.004
N38780 X15.781 Y6.018
N38790 X16.07 Y6.032
N38800 X17.149 Y6.124
N38810 X17.435 Y6.159
N38820 X18.505 Y6.328
N38830 X18.789 Y6.384
N38840 X19.843 Y6.63
N38850 X20.122 Y6.706
N38860 X21.156 Y7.027
N38870 X21.429 Y7.123
N38880 X22.437 Y7.518
N38890 X22.702 Y7.633
N38900 X23.679 Y8.1
N38910 X23.935 Y8.234
N38920 X24.759 Y8.704
N38930 X38.774 Y4.685
N38940 X38.794 Y4.67
N38950 X39.844 Y3.876
N38960 X40.039 Y3.738
N38970 X41. Y3.097
N38980 Y1.993
N38990 X41.005 Y1.805
N39000 X41.022 Y1.437
N39010 X41.07 Y.983
N39020 X41.156 Y.452
N39030 X41.257 Y0
N39040 X24.375
N39050 Y2.
N39060 Y4.
N39070 X24.427 Y4.025
N39080 X25.23 Y4.408
N39090 X26.653 Y4.
N39100 X24.375
N39110 Y0
N39120 X5.643
N39130 Y2.
N39140 Y4.
N39150 X4.
N39160 Y4.812
N39170 X4.598 Y4.49
N39180 X5.116 Y4.236
N39190 X5.643 Y4.
N39200 Z4. F2000.
N39210 G0 Y-7.01
N39220 Z3.
N39230 G1 Z-7. F125.
N39240 Y0
N39250 X0 F1300.
N39260 Y11.257
N39270 X.209 Y11.21
N39280 X.72 Y11.109
N39290 X1.224 Y11.043
N39300 X1.727 Y11.009
N39310 X1.995 Y11.
N39320 X2.155
N39330 X2.217 Y10.946
N39340 X3.038 Y10.241
N39350 X3.264 Y10.06
N39360 X4.134 Y9.416
N39370 X4.373 Y9.253
N39380 X5.287 Y8.673
N39390 X5.537 Y8.527
N39400 X6.491 Y8.014
N39410 X6.75 Y7.887
N39420 X7.739 Y7.445
N39430 X8.009 Y7.335
N39440 X9.048 Y6.959
N39450 X9.323 Y6.87
N39460 X10.344 Y6.581
N39470 X10.622 Y6.513
N39480 X11.682 Y6.294
N39490 X11.967 Y6.246
N39500 X13.041 Y6.103
N39510 X13.328 Y6.076
N39520 X14.409 Y6.011
N39530 X14.698 Y6.004
N39540 X15.781 Y6.018
N39550 X16.07 Y6.032
N39560 X17.149 Y6.124
N39570 X17.435 Y6.159
N39580 X18.505 Y6.328
N39590 X18.789 Y6.384
N39600 X19.843 Y6.63
N39610 X20.122 Y6.706
N39620 X21.156 Y7.027
N39630 X21.429 Y7.123
N39640 X22.437 Y7.518
N39650 X22.702 Y7.633
N39660 X23.679 Y8.1
N39670 X23.935 Y8.234
N39680 X24.759 Y8.704
N39690 X38.774 Y4.685
N39700 X38.794 Y4.67
N39710 X39.844 Y3.876
N39720 X40.039 Y3.738
N39730 X41. Y3.097
N39740 Y1.993
N39750 X41.005 Y1.805
N39760 X41.022 Y1.437
N39770 X41.07 Y.983
N39780 X41.156 Y.452
N39790 X41.257 Y0
N39800 X24.375
N39810 Y2.
N39820 Y4.
N39830 X24.427 Y4.025
N39840 X25.23 Y4.408
N39850 X26.653 Y4.
N39860 X24.375
N39870 Y0
N39880 X5.643
N39890 Y2.
N39900 Y4.
N39910 X4.
N39920 Y4.812
N39930 X4.598 Y4.49
N39940 X5.116 Y4.236
N39950 X5.643 Y4.
N39960 Z3. F2000.
N39970 G0 Y-7.01
N39980 Z2.
N39990 G1 Z-8. F125.
N40000 Y0
N40010 X0 F1300.
N40020 Y11.257
N40030 X.209 Y11.21
N40040 X.72 Y11.109
N40050 X1.224 Y11.043
N40060 X1.727 Y11.009
N40070 X1.995 Y11.
N40080 X2.155
N40090 X2.217 Y10.946
N40100 X3.038 Y10.241
N40110 X3.264 Y10.06
N40120 X4.134 Y9.416
N40130 X4.373 Y9.253
N40140 X5.287 Y8.673
N40150 X5.537 Y8.527
N40160 X6.491 Y8.014
N40170 X6.75 Y7.887
N40180 X7.739 Y7.445
N40190 X8.009 Y7.335
N40200 X9.048 Y6.959
N40210 X9.323 Y6.87
N40220 X10.344 Y6.581
N40230 X10.622 Y6.513
N40240 X11.682 Y6.294
N40250 X11.967 Y6.246
N40260 X13.041 Y6.103
N40270 X13.328 Y6.076
N40280 X14.409 Y6.011
N40290 X14.698 Y6.004
N40300 X15.781 Y6.018
N40310 X16.07 Y6.032
N40320 X17.149 Y6.124
N40330 X17.435 Y6.159
N40340 X18.505 Y6.328
N40350 X18.789 Y6.384
N40360 X19.843 Y6.63
N40370 X20.122 Y6.706
N40380 X21.156 Y7.027
N40390 X21.429 Y7.123
N40400 X22.437 Y7.518
N40410 X22.702 Y7.633
N40420 X23.679 Y8.1
N40430 X23.935 Y8.234
N40440 X24.759 Y8.704
N40450 X38.774 Y4.685
N40460 X38.794 Y4.67
N40470 X39.844 Y3.876
N40480 X40.039 Y3.738
N40490 X41. Y3.097
N40500 Y1.993
N40510 X41.005 Y1.805
N40520 X41.022 Y1.437
N40530 X41.07 Y.983
N40540 X41.156 Y.452
N40550 X41.257 Y0
N40560 X24.375
N40570 Y2.
N40580 Y4.
N40590 X24.427 Y4.025
N40600 X25.23 Y4.408
N40610 X26.653 Y4.
N40620 X24.375
N40630 Y0
N40640 X5.643
N40650 Y2.
N40660 Y4.
N40670 X4.
N40680 Y4.812
N40690 X4.598 Y4.49
N40700 X5.116 Y4.236
N40710 X5.643 Y4.
N40720 Z2. F2000.
N40730 G0 Y-7.01
N40740 Z1.
N40750 G1 Z-9. F125.
N40760 Y0
N40770 X0 F1300.
N40780 Y11.257
N40790 X.209 Y11.21
N40800 X.72 Y11.109
N40810 X1.224 Y11.043
N40820 X1.727 Y11.009
N40830 X1.995 Y11.
N40840 X2.155
N40850 X2.217 Y10.946
N40860 X3.038 Y10.241
N40870 X3.264 Y10.06
N40880 X4.134 Y9.416
N40890 X4.373 Y9.253
N40900 X5.287 Y8.673
N40910 X5.537 Y8.527
N40920 X6.491 Y8.014
N40930 X6.75 Y7.887
N40940 X7.739 Y7.445
N40950 X8.009 Y7.335
N40960 X9.048 Y6.959
N40970 X9.323 Y6.87
N40980 X10.344 Y6.581
N40990 X10.622 Y6.513
N41000 X11.682 Y6.294
N41010 X11.967 Y6.246
N41020 X13.041 Y6.103
N41030 X13.328 Y6.076
N41040 X14.409 Y6.011
N41050 X14.698 Y6.004
N41060 X15.781 Y6.018
N41070 X16.07 Y6.032
N41080 X17.149 Y6.124
N41090 X17.435 Y6.159
N41100 X18.505 Y6.328
N41110 X18.789 Y6.384
N41120 X19.843 Y6.63
N41130 X20.122 Y6.706
N41140 X21.156 Y7.027
N41150 X21.429 Y7.123
N41160 X22.437 Y7.518
N41170 X22.702 Y7.633
N41180 X23.679 Y8.1
N41190 X23.935 Y8.234
N41200 X24.759 Y8.704
N41210 X38.774 Y4.685
N41220 X38.794 Y4.67
N41230 X39.844 Y3.876
N41240 X40.039 Y3.738
N41250 X41. Y3.097
N41260 Y1.993
N41270 X41.005 Y1.805
N41280 X41.022 Y1.437
N41290 X41.07 Y.983
N41300 X41.156 Y.452
N41310 X41.257 Y0
N41320 X24.375
N41330 Y2.
N41340 Y4.
N41350 X24.427 Y4.025
N41360 X25.23 Y4.408
N41370 X26.653 Y4.
N41380 X24.375
N41390 Y0
N41400 X5.643
N41410 Y2.
N41420 Y4.
N41430 X4.
N41440 Y4.812
N41450 X4.598 Y4.49
N41460 X5.116 Y4.236
N41470 X5.643 Y4.
N41480 Z1. F2000.
N41490 G0 Y-7.01
N41500 Z0
N41510 G1 Z-10. F125.
N41520 Y0
N41530 X0 F1300.
N41540 Y11.257
N41550 X.209 Y11.21
N41560 X.72 Y11.109
N41570 X1.224 Y11.043
N41580 X1.727 Y11.009
N41590 X1.995 Y11.
N41600 X2.155
N41610 X2.217 Y10.946
N41620 X3.038 Y10.241
N41630 X3.264 Y10.06
N41640 X4.134 Y9.416
N41650 X4.373 Y9.253
N41660 X5.287 Y8.673
N41670 X5.537 Y8.527
N41680 X6.491 Y8.014
N41690 X6.75 Y7.887
N41700 X7.739 Y7.445
N41710 X8.009 Y7.335
N41720 X9.048 Y6.959
N41730 X9.323 Y6.87
N41740 X10.344 Y6.581
N41750 X10.622 Y6.513
N41760 X11.682 Y6.294
N41770 X11.967 Y6.246
N41780 X13.041 Y6.103
N41790 X13.328 Y6.076
N41800 X14.409 Y6.011
N41810 X14.698 Y6.004
N41820 X15.781 Y6.018
N41830 X16.07 Y6.032
N41840 X17.149 Y6.124
N41850 X17.435 Y6.159
N41860 X18.505 Y6.328
N41870 X18.789 Y6.384
N41880 X19.843 Y6.63
N41890 X20.122 Y6.706
N41900 X21.156 Y7.027
N41910 X21.429 Y7.123
N41920 X22.437 Y7.518
N41930 X22.702 Y7.633
N41940 X23.679 Y8.1
N41950 X23.935 Y8.234
N41960 X24.759 Y8.704
N41970 X38.774 Y4.685
N41980 X38.794 Y4.67
N41990 X39.844 Y3.876
N42000 X40.039 Y3.738
N42010 X41. Y3.097
N42020 Y1.993
N42030 X41.005 Y1.805
N42040 X41.022 Y1.437
N42050 X41.07 Y.983
N42060 X41.156 Y.452
N42070 X41.257 Y0
N42080 X24.375
N42090 Y2.
N42100 Y4.
N42110 X24.427 Y4.025
N42120 X25.23 Y4.408
N42130 X26.653 Y4.
N42140 X24.375
N42150 Y0
N42160 X5.643
N42170 Y2.
N42180 Y4.
N42190 X4.
N42200 Y4.812
N42210 X4.598 Y4.49
N42220 X5.116 Y4.236
N42230 X5.643 Y4.
N42240 Z0 F2000.
N42250 G0 Y-7.01
N42260 Z-1.
N42270 G1 Z-11. F125.
N42280 Y0
N42290 X0 F1300.
N42300 Y11.257
N42310 X.209 Y11.21
N42320 X.72 Y11.109
N42330 X1.224 Y11.043
N42340 X1.727 Y11.009
N42350 X1.995 Y11.
N42360 X2.155
N42370 X2.217 Y10.946
N42380 X3.038 Y10.241
N42390 X3.264 Y10.06
N42400 X4.134 Y9.416
N42410 X4.373 Y9.253
N42420 X5.287 Y8.673
N42430 X5.537 Y8.527
N42440 X6.491 Y8.014
N42450 X6.75 Y7.887
N42460 X7.739 Y7.445
N42470 X8.009 Y7.335
N42480 X9.048 Y6.959
N42490 X9.323 Y6.87
N42500 X10.344 Y6.581
N42510 X10.622 Y6.513
N42520 X11.682 Y6.294
N42530 X11.967 Y6.246
N42540 X13.041 Y6.103
N42550 X13.328 Y6.076
N42560 X14.409 Y6.011
N42570 X14.698 Y6.004
N42580 X15.781 Y6.018
N42590 X16.07 Y6.032
N42600 X17.149 Y6.124
N42610 X17.435 Y6.159
N42620 X18.505 Y6.328
N42630 X18.789 Y6.384
N42640 X19.843 Y6.63
N42650 X20.122 Y6.706
N42660 X21.156 Y7.027
N42670 X21.429 Y7.123
N42680 X22.437 Y7.518
N42690 X22.702 Y7.633
N42700 X23.679 Y8.1
N42710 X23.935 Y8.234
N42720 X24.759 Y8.704
N42730 X38.774 Y4.685
N42740 X38.794 Y4.67
N42750 X39.844 Y3.876
N42760 X40.039 Y3.738
N42770 X41. Y3.097
N42780 Y1.993
N42790 X41.005 Y1.805
N42800 X41.022 Y1.437
N42810 X41.07 Y.983
N42820 X41.156 Y.452
N42830 X41.257 Y0
N42840 X24.375
N42850 Y2.
N42860 Y4.
N42870 X24.427 Y4.025
N42880 X25.23 Y4.408
N42890 X26.653 Y4.
N42900 X24.375
N42910 Y0
N42920 X5.643
N42930 Y2.
N42940 Y4.
N42950 X4.
N42960 Y4.812
N42970 X4.598 Y4.49
N42980 X5.116 Y4.236
N42990 X5.643 Y4.
N43000 Z-1. F2000.
N43010 G0 Z7.
N43020 X5.641 Y57.01
N43030 G1 Z-3. F125.
N43040 Y50.
N43050 X24.381 F1300.
N43060 Y48.
N43070 Y46.
N43080 X26.653
N43090 X25.226 Y45.591
N43100 X24.655 Y45.872
N43110 X24.381 Y46.
N43120 Y50.
N43130 X41.255
N43140 X41.226 Y49.866
N43150 X41.118 Y49.341
N43160 X41.046 Y48.81
N43170 X41.009 Y48.27
N43180 X41. Y47.999
N43190 Y46.899
N43200 X40.227 Y46.393
N43210 X40.031 Y46.257
N43220 X38.974 Y45.472
N43230 X38.817 Y45.349
N43240 X38.776 Y45.315
N43250 X24.755 Y41.295
N43260 X24.117 Y41.667
N43270 X23.862 Y41.804
N43280 X22.89 Y42.282
N43290 X22.627 Y42.4
N43300 X21.623 Y42.806
N43310 X21.351 Y42.905
N43320 X20.321 Y43.238
N43330 X20.043 Y43.316
N43340 X18.991 Y43.574
N43350 X18.708 Y43.633
N43360 X17.64 Y43.814
N43370 X17.354 Y43.852
N43380 X16.276 Y43.955
N43390 X15.988 Y43.972
N43400 X14.905 Y43.998
N43410 X14.616 Y43.994
N43420 X13.534 Y43.941
N43430 X13.246 Y43.917
N43440 X12.171 Y43.786
N43450 X11.886 Y43.741
N43460 X10.823 Y43.533
N43470 X10.542 Y43.467
N43480 X9.497 Y43.183
N43490 X9.221 Y43.098
N43500 X8.199 Y42.739
N43510 X7.93 Y42.633
N43520 X6.937 Y42.202
N43530 X6.676 Y42.077
N43540 X5.716 Y41.575
N43550 X5.465 Y41.432
N43560 X4.545 Y40.862
N43570 X4.305 Y40.701
N43580 X3.427 Y40.066
N43590 X3.2 Y39.889
N43600 X2.37 Y39.192
N43610 X2.156 Y38.998
N43620 X2.153 Y38.995
N43630 X1.773 Y38.994
N43640 X1.29 Y38.963
N43650 X.744 Y38.895
N43660 X.225 Y38.796
N43670 X0 Y38.736
N43680 Y50.
N43690 X5.641
N43700 Y48.
N43710 Y46.
N43720 X5.343 Y45.871
N43730 X4.822 Y45.621
N43740 X4. Y45.192
N43750 Y46.
N43760 X5.641
N43770 Z7. F2000.
N43780 G0 Y57.01
N43790 Z6.
N43800 G1 Z-4. F125.
N43810 Y50.
N43820 X24.381 F1300.
N43830 Y48.
N43840 Y46.
N43850 X26.653
N43860 X25.226 Y45.591
N43870 X24.655 Y45.872
N43880 X24.381 Y46.
N43890 Y50.
N43900 X41.255
N43910 X41.226 Y49.866
N43920 X41.118 Y49.341
N43930 X41.046 Y48.81
N43940 X41.009 Y48.27
N43950 X41. Y47.999
N43960 Y46.899
N43970 X40.227 Y46.393
N43980 X40.031 Y46.257
N43990 X38.974 Y45.472
N44000 X38.817 Y45.349
N44010 X38.776 Y45.315
N44020 X24.755 Y41.295
N44030 X24.117 Y41.667
N44040 X23.862 Y41.804
N44050 X22.89 Y42.282
N44060 X22.627 Y42.4
N44070 X21.623 Y42.806
N44080 X21.351 Y42.905
N44090 X20.321 Y43.238
N44100 X20.043 Y43.316
N44110 X18.991 Y43.574
N44120 X18.708 Y43.633
N44130 X17.64 Y43.814
N44140 X17.354 Y43.852
N44150 X16.276 Y43.955
N44160 X15.988 Y43.972
N44170 X14.905 Y43.998
N44180 X14.616 Y43.994
N44190 X13.534 Y43.941
N44200 X13.246 Y43.917
N44210 X12.171 Y43.786
N44220 X11.886 Y43.741
N44230 X10.823 Y43.533
N44240 X10.542 Y43.467
N44250 X9.497 Y43.183
N44260 X9.221 Y43.098
N44270 X8.199 Y42.739
N44280 X7.93 Y42.633
N44290 X6.937 Y42.202
N44300 X6.676 Y42.077
N44310 X5.716 Y41.575
N44320 X5.465 Y41.432
N44330 X4.545 Y40.862
N44340 X4.305 Y40.701
N44350 X3.427 Y40.066
N44360 X3.2 Y39.889
N44370 X2.37 Y39.192
N44380 X2.156 Y38.998
N44390 X2.153 Y38.995
N44400 X1.773 Y38.994
N44410 X1.29 Y38.963
N44420 X.744 Y38.895
N44430 X.225 Y38.796
N44440 X0 Y38.736
N44450 Y50.
N44460 X5.641
N44470 Y48.
N44480 Y46.
N44490 X5.343 Y45.871
N44500 X4.822 Y45.621
N44510 X4. Y45.192
N44520 Y46.
N44530 X5.641
N44540 Z6. F2000.
N44550 G0 Y57.01
N44560 Z5.
N44570 G1 Z-5. F125.
N44580 Y50.
N44590 X24.381 F1300.
N44600 Y48.
N44610 Y46.
N44620 X26.653
N44630 X25.226 Y45.591
N44640 X24.655 Y45.872
N44650 X24.381 Y46.
N44660 Y50.
N44670 X41.255
N44680 X41.226 Y49.866
N44690 X41.118 Y49.341
N44700 X41.046 Y48.81
N44710 X41.009 Y48.27
N44720 X41. Y47.999
N44730 Y46.899
N44740 X40.227 Y46.393
N44750 X40.031 Y46.257
